; generated by PrusaSlicer 2.4.2+linux-x64-GTK3 on 2022-08-15 at 14:47:12 UTC


;
;
; 

; external perimeters extrusion width = 0.45mm
; perimeters extrusion width = 0.45mm
; infill extrusion width = 0.45mm
; solid infill extrusion width = 0.45mm
; top infill extrusion width = 0.40mm
; support material extrusion width = 0.35mm
; first layer extrusion width = 0.42mm

; external perimeters extrusion width = 0.45mm
; perimeters extrusion width = 0.45mm
; infill extrusion width = 0.45mm
; solid infill extrusion width = 0.45mm
; top infill extrusion width = 0.40mm
; support material extrusion width = 0.35mm
; first layer extrusion width = 0.42mm

; external perimeters extrusion width = 0.45mm
; perimeters extrusion width = 0.45mm
; infill extrusion width = 0.45mm
; solid infill extrusion width = 0.45mm
; top infill extrusion width = 0.40mm
; support material extrusion width = 0.35mm
; first layer extrusion width = 0.42mm

M73 P0 R76
M73 Q0 S76
M201 X1000 Y1000 Z200 E5000 ; sets maximum accelerations, mm/sec^2
M203 X200 Y200 Z12 E120 ; sets maximum feedrates, mm / sec
M204 P1250 R1250 T1250 ; sets acceleration (P, T) and retract acceleration (R), mm/sec^2
M205 X8.00 Y8.00 Z0.40 E4.50 ; sets the jerk limits, mm/sec
M205 S0 T0 ; sets the minimum extruding and travel feed rate, mm/sec
M107
;TYPE:Custom
M862.3 P "MK3S" ; printer model check
M862.1 P0.4 ; nozzle diameter check
M115 U3.11.0 ; tell printer latest fw version
G90 ; use absolute coordinates
M83 ; extruder relative mode
M104 S215 ; set extruder temp
M140 S60 ; set bed temp
M190 S60 ; wait for bed temp
M109 S215 ; wait for extruder temp
G28 W ; home all without mesh bed level
G80 ; mesh bed leveling
G1 Z0.2 F720
G1 Y-3 F1000 ; go outside print area
G92 E0
G1 X60 E9 F1000 ; intro line
G1 X100 E12.5 F1000 ; intro line
G92 E0
M221 S95

; Don't change E values below. Excessive value can damage the printer.
M907 E430 ; set extruder motor current
G21 ; set units to millimeters
G90 ; use absolute coordinates
M83 ; use relative distances for extrusion
M900 K0.05 ; Filament gcode LA 1.5
M900 K30 ; Filament gcode LA 1.0
M107
;LAYER_CHANGE
;Z:0.2
;HEIGHT:0.2
;BEFORE_LAYER_CHANGE
G92 E0.0
;0.2


G1 E-.8 F2100
G1 Z.4 F720
;AFTER_LAYER_CHANGE
;0.2
G1 X84.538 Y81.151 F4800
G1 Z.2 F720
G1 E.8 F2100
M204 S800
;TYPE:Skirt/Brim
;WIDTH:0.42
G1 F1200
G1 X85.038 Y80.651 E.02217
G1 X86.57 Y79.959 E.05271
G1 X128.894 Y77.309 E1.32962
G1 X131.009 Y77.206 E.06639
G1 X144.708 Y77.201 E.42954
G1 X145.617 Y77.382 E.02905
G1 X145.971 Y77.528 E.01201
G1 X146.95 Y78.279 E.03869
G1 X165.668 Y102.714 E.96511
G1 X166.158 Y104.16 E.04786
G1 X166.12 Y105.513 E.04243
G1 X162.265 Y126.699 E.67519
G1 X161.608 Y127.954 E.04444
G1 X161.108 Y128.454 E.02217
G1 X159.725 Y129.132 E.04826
G1 X130.846 Y132.789 E.91274
G1 X128.895 Y132.728 E.0612
M73 P0 R75
G1 X126.231 Y132.338 E.08442
G1 X123.618 Y131.684 E.08444
G1 X120.864 Y130.68 E.0919
G1 X118.441 Y129.5 E.08451
G1 X116.142 Y128.084 E.08465
G1 X92.767 Y110.232 E.92221
G1 X91.895 Y109.28 E.04048
M73 Q0 S75
G1 X91.455 Y108.481 E.02858
G1 X83.955 Y85.114 E.76948
G1 X83.842 Y84.388 E.02305
G1 X83.842 Y82.831 E.04879
G1 X84.515 Y81.206 E.05516
M204 S1000
; printing object murray-Piston.stl id:0 copy 0
;WIPE_START
G1 F3840
G1 X85.038 Y80.651 E-.39634
G1 X85.676 Y80.363 E-.36366
;WIPE_END
G1 E-.04 F2100
G1 Z.6 F720
G1 X95.183 Y83.896 F4800
G1 Z.2 F720
G1 E.8 F2100
M204 S800
;TYPE:Perimeter
G1 F1200
G1 X96.519 Y83.896 E.04188
G1 X96.309 Y84.105 E.0093
G1 X96.309 Y107.131 E.72197
G1 X95.288 Y106.948 E.03253
G1 X95.283 Y84.905 E.69113
G1 X95.183 Y84.805 E.00443
G1 X95.183 Y83.956 E.02664
M204 S1000
G1 E-.8 F2100
G1 Z.6 F720
G1 X87.406 Y83.518 F4800
G1 Z.2 F720
G1 E.8 F2100
M204 S800
G1 F1200
G1 X104.186 Y83.518 E.52613
G1 X104.186 Y83.7 E.00571
G1 X97.247 Y83.7 E.21757
G1 X96.686 Y84.261 E.02488
G1 X96.686 Y107.582 E.73121
G1 X94.911 Y107.263 E.05655
G1 X94.906 Y85.061 E.69612
G1 X94.806 Y84.961 E.00443
G1 X94.806 Y83.7 E.03954
G1 X87.406 Y83.7 E.23202
G1 X87.406 Y83.578 E.00382
M204 S1000
G1 X87.029 Y83.141 F4800
M204 S800
;TYPE:External perimeter
G1 F1200
G1 X104.563 Y83.141 E.54978
G1 X104.563 Y84.077 E.02935
G1 X97.403 Y84.077 E.22449
G1 X97.063 Y84.418 E.01508
G1 X97.063 Y108.033 E.74045
G1 X94.534 Y107.578 E.08057
G1 X94.529 Y85.218 E.70111
G1 X94.429 Y85.118 E.00443
G1 X94.429 Y84.077 E.03261
G1 X87.029 Y84.077 E.23202
G1 X87.029 Y83.201 E.02747
M204 S1000
G1 X87.428 Y83.158 F4800
G1 E-.8 F2100
G1 Z.6 F720
G1 X96.196 Y84.779 F4800
G1 Z.2 F720
G1 E.8 F2100
M204 S800
;TYPE:Solid infill
;WIDTH:0.423981
G1 F1200
G1 X95.595 Y84.178 E.02693
G1 X95.466 Y84.178 E.00409
G1 X95.466 Y84.588 E.01298
G1 X96.026 Y85.149 E.02512
G1 X96.026 Y85.687 E.01708
G1 X95.566 Y85.227 E.02064
G1 X95.566 Y85.766 E.01708
G1 X96.026 Y86.226 E.02063
G1 X96.026 Y86.765 E.01708
G1 X95.566 Y86.305 E.02062
G1 X95.566 Y86.844 E.01708
G1 X96.026 Y87.304 E.02062
G1 X96.026 Y87.843 E.01708
G1 X95.566 Y87.383 E.02061
G1 X95.566 Y87.922 E.01708
G1 X96.026 Y88.382 E.02061
G1 X96.026 Y88.921 E.01708
G1 X95.566 Y88.461 E.0206
G1 X95.567 Y89 E.01708
G1 X96.026 Y89.46 E.0206
G1 X96.026 Y89.999 E.01708
G1 X95.567 Y89.539 E.02059
G1 X95.567 Y90.078 E.01708
G1 X96.026 Y90.538 E.02059
G1 X96.026 Y91.077 E.01708
G1 X95.567 Y90.617 E.02058
G1 X95.567 Y91.156 E.01708
G1 X96.026 Y91.615 E.02057
G1 X96.026 Y92.154 E.01708
G1 X95.567 Y91.695 E.02057
G1 X95.567 Y92.234 E.01708
G1 X96.026 Y92.693 E.02056
G1 X96.026 Y93.232 E.01708
G1 X95.567 Y92.773 E.02056
G1 X95.568 Y93.312 E.01708
G1 X96.026 Y93.771 E.02055
G1 X96.026 Y94.31 E.01708
G1 X95.568 Y93.851 E.02055
G1 X95.568 Y94.39 E.01708
G1 X96.026 Y94.849 E.02054
G1 X96.026 Y95.388 E.01708
G1 X95.568 Y94.929 E.02053
G1 X95.568 Y95.468 E.01708
G1 X96.026 Y95.927 E.02053
G1 X96.026 Y96.466 E.01708
G1 X95.568 Y96.008 E.02052
G1 X95.568 Y96.547 E.01708
G1 X96.026 Y97.004 E.02052
G1 X96.026 Y97.543 E.01708
G1 X95.568 Y97.086 E.02051
G1 X95.569 Y97.625 E.01708
G1 X96.026 Y98.082 E.02051
G1 X96.026 Y98.621 E.01708
G1 X95.569 Y98.164 E.0205
G1 X95.569 Y98.703 E.01708
G1 X96.026 Y99.16 E.02049
G1 X96.026 Y99.699 E.01708
G1 X95.569 Y99.242 E.02049
G1 X95.569 Y99.781 E.01708
G1 X96.026 Y100.238 E.02048
G1 X96.026 Y100.777 E.01708
G1 X95.569 Y100.32 E.02048
G1 X95.569 Y100.859 E.01708
G1 X96.026 Y101.316 E.02047
G1 X96.026 Y101.855 E.01708
G1 X95.57 Y101.398 E.02047
G1 X95.57 Y101.937 E.01708
G1 X96.026 Y102.393 E.02046
G1 X96.026 Y102.932 E.01708
G1 X95.57 Y102.476 E.02045
G1 X95.57 Y103.015 E.01708
G1 X96.026 Y103.471 E.02045
G1 X96.026 Y104.01 E.01708
G1 X95.57 Y103.554 E.02044
G1 X95.57 Y104.093 E.01708
G1 X96.026 Y104.549 E.02044
G1 X96.026 Y105.088 E.01708
G1 X95.57 Y104.632 E.02043
G1 X95.57 Y105.171 E.01708
G1 X96.026 Y105.627 E.02043
G1 X96.026 Y106.166 E.01708
G1 X95.571 Y105.71 E.02042
G1 X95.571 Y106.249 E.01708
G1 X96.196 Y106.874 E.02802
M204 S1000
; stop printing object murray-Piston.stl id:0 copy 0
; printing object murray-PIR_pusher.stl id:2 copy 0
;WIPE_START
G1 F3840
G1 X95.571 Y106.249 E-.4594
G1 X95.571 Y105.71 E-.28004
G1 X95.598 Y105.738 E-.02055
;WIPE_END
G1 E-.04 F2100
G1 Z.6 F720
G1 X143.787 Y88.456 F4800
G1 Z.2 F720
G1 E.8 F2100
M204 S800
;TYPE:Perimeter
;WIDTH:0.42
G1 F1200
G1 X130.992 Y88.456 E.40115
G1 X129.385 Y88.505 E.05041
G1 X127.31 Y88.782 E.06564
G1 X125.282 Y89.238 E.06518
G1 X123.312 Y89.872 E.06489
G1 X121.418 Y90.677 E.06453
G1 X119.618 Y91.647 E.06411
G1 X117.929 Y92.772 E.06363
G1 X116.368 Y94.043 E.06312
G1 X114.95 Y95.449 E.0626
G1 X113.689 Y96.977 E.06209
G1 X112.599 Y98.611 E.06161
G1 X111.691 Y100.338 E.06117
G1 X110.973 Y102.139 E.06079
G1 X110.455 Y103.998 E.0605
G1 X110.142 Y105.895 E.0603
G1 X110.037 Y107.812 E.06019
G1 X110.142 Y109.729 E.06019
G1 X110.455 Y111.626 E.0603
G1 X110.973 Y113.485 E.0605
G1 X111.691 Y115.287 E.06079
G1 X112.599 Y117.013 E.06117
G1 X113.689 Y118.648 E.06161
G1 X114.95 Y120.175 E.06209
G1 X116.368 Y121.581 E.0626
G1 X117.929 Y122.852 E.06312
G1 X119.618 Y123.978 E.06363
G1 X121.418 Y124.947 E.06411
G1 X123.312 Y125.752 E.06453
G1 X125.282 Y126.386 E.06489
G1 X127.31 Y126.842 E.06518
G1 X129.377 Y127.118 E.06537
G1 X129.623 Y127.129 E.00772
G1 X129.623 Y128.96 E.05741
G1 X129.155 Y128.936 E.01469
G1 X126.868 Y128.591 E.07249
G1 X124.626 Y128.019 E.07255
G1 X122.45 Y127.226 E.07264
G1 X120.359 Y126.219 E.07275
G1 X118.375 Y125.008 E.07288
G1 X116.517 Y123.604 E.07302
G1 X114.802 Y122.022 E.07317
G1 X113.247 Y120.275 E.07333
G1 X111.868 Y118.38 E.07347
G1 X110.677 Y116.357 E.07362
G1 X109.686 Y114.224 E.07374
G1 X108.905 Y112.002 E.07385
G1 X108.342 Y109.712 E.07394
G1 X108.002 Y107.377 E.07399
G1 X107.888 Y105.018 E.07403
G1 X108.002 Y102.66 E.07403
G1 X108.342 Y100.325 E.07399
G1 X108.905 Y98.035 E.07394
G1 X109.686 Y95.813 E.07385
G1 X110.677 Y93.68 E.07374
G1 X111.868 Y91.656 E.07362
G1 X113.247 Y89.762 E.07348
G1 X114.802 Y88.015 E.07333
G1 X116.517 Y86.432 E.07317
G1 X118.375 Y85.029 E.07302
G1 X120.359 Y83.818 E.07288
G1 X122.45 Y82.811 E.07275
G1 X124.626 Y82.018 E.07264
G1 X126.868 Y81.446 E.07255
G1 X129.157 Y81.1 E.07256
G1 X131.037 Y81.006 E.05903
G1 X143.787 Y81.002 E.39976
G1 X143.787 Y88.396 E.23183
M204 S1000
G1 X144.164 Y88.833 F4800
M204 S800
G1 F1200
G1 X130.998 Y88.833 E.41279
G1 X129.416 Y88.882 E.04963
G1 X127.377 Y89.153 E.06451
G1 X125.382 Y89.603 E.06412
G1 X123.444 Y90.226 E.06383
G1 X121.581 Y91.017 E.06345
G1 X119.812 Y91.97 E.06301
G1 X118.153 Y93.076 E.06251
G1 X116.62 Y94.324 E.06198
G1 X115.229 Y95.704 E.06144
G1 X113.992 Y97.202 E.0609
G1 X112.924 Y98.804 E.06039
G1 X112.033 Y100.496 E.05993
G1 X111.331 Y102.26 E.05954
G1 X110.824 Y104.079 E.05923
G1 X110.517 Y105.936 E.05901
M73 P1 R75
G1 X110.415 Y107.812 E.0589
M73 Q1 S75
G1 X110.517 Y109.688 E.0589
G1 X110.824 Y111.545 E.05901
G1 X111.331 Y113.364 E.05923
G1 X112.033 Y115.129 E.05954
G1 X112.924 Y116.82 E.05993
G1 X113.992 Y118.422 E.06039
G1 X115.229 Y119.92 E.0609
G1 X116.62 Y121.3 E.06144
G1 X118.153 Y122.548 E.06198
G1 X119.812 Y123.654 E.06251
G1 X121.581 Y124.607 E.06301
G1 X123.444 Y125.399 E.06345
G1 X125.382 Y126.022 E.06383
G1 X127.377 Y126.471 E.06412
G1 X129.41 Y126.742 E.06432
G1 X130 Y126.768 E.01851
G1 X130 Y129.356 E.08115
G1 X129.117 Y129.312 E.02772
G1 X126.794 Y128.961 E.07368
G1 X124.515 Y128.38 E.07373
G1 X122.303 Y127.574 E.07382
G1 X120.179 Y126.551 E.07392
G1 X118.163 Y125.32 E.07405
G1 X116.275 Y123.894 E.07419
G1 X114.533 Y122.286 E.07433
G1 X112.953 Y120.512 E.07449
G1 X111.552 Y118.588 E.07463
G1 X110.342 Y116.533 E.07477
G1 X109.336 Y114.366 E.07489
G1 X108.543 Y112.11 E.075
G1 X107.971 Y109.784 E.07508
G1 X107.626 Y107.413 E.07513
G1 X107.51 Y105.018 E.07517
G1 X107.626 Y102.624 E.07517
G1 X107.971 Y100.253 E.07513
G1 X108.543 Y97.927 E.07508
G1 X109.336 Y95.671 E.075
G1 X110.342 Y93.504 E.07489
G1 X111.552 Y91.449 E.07477
G1 X112.953 Y89.525 E.07463
G1 X114.533 Y87.751 E.07448
G1 X116.275 Y86.143 E.07433
G1 X118.163 Y84.717 E.07419
G1 X120.179 Y83.486 E.07405
G1 X122.303 Y82.463 E.07392
G1 X124.515 Y81.657 E.07382
G1 X126.794 Y81.076 E.07373
G1 X129.119 Y80.725 E.07374
G1 X131.027 Y80.629 E.05991
G1 X144.164 Y80.625 E.41188
G1 X144.164 Y88.773 E.25548
M204 S1000
G1 X144.541 Y89.21 F4800
M204 S800
;TYPE:External perimeter
G1 F1200
G1 X131.004 Y89.21 E.42443
G1 X129.447 Y89.258 E.04885
G1 X127.443 Y89.525 E.06339
G1 X125.481 Y89.967 E.06306
G1 X123.575 Y90.579 E.06276
G1 X121.745 Y91.357 E.06237
G1 X120.006 Y92.294 E.06191
G1 X118.377 Y93.38 E.06139
G1 X116.873 Y94.605 E.06084
G1 X115.508 Y95.958 E.06027
G1 X114.295 Y97.427 E.05971
G1 X113.248 Y98.997 E.05918
G1 X112.376 Y100.654 E.05869
G1 X111.689 Y102.381 E.05828
G1 X111.193 Y104.161 E.05795
G1 X110.893 Y105.977 E.05773
G1 X110.792 Y107.812 E.05761
G1 X110.893 Y109.647 E.05761
G1 X111.193 Y111.463 E.05773
G1 X111.689 Y113.244 E.05795
G1 X112.376 Y114.971 E.05828
G1 X113.248 Y116.627 E.05869
G1 X114.295 Y118.197 E.05918
G1 X115.508 Y119.666 E.05971
G1 X116.873 Y121.019 E.06027
G1 X118.377 Y122.245 E.06084
G1 X120.006 Y123.33 E.06139
G1 X121.745 Y124.267 E.06191
G1 X123.575 Y125.045 E.06237
G1 X125.481 Y125.658 E.06276
G1 X127.443 Y126.099 E.06306
G1 X129.443 Y126.366 E.06327
G1 X130.377 Y126.407 E.0293
G1 X130.377 Y129.752 E.10489
G1 X129.079 Y129.687 E.04074
G1 X126.719 Y129.331 E.07486
G1 X124.403 Y128.74 E.07491
G1 X122.156 Y127.921 E.075
G1 X119.998 Y126.882 E.0751
G1 X117.95 Y125.632 E.07522
G1 X116.033 Y124.184 E.07536
G1 X114.263 Y122.551 E.0755
G1 X112.659 Y120.749 E.07564
G1 X111.236 Y118.795 E.07579
G1 X110.008 Y116.708 E.07592
G1 X108.987 Y114.508 E.07604
G1 X108.181 Y112.217 E.07614
G1 X107.601 Y109.857 E.07622
G1 X107.25 Y107.449 E.07628
G1 X107.133 Y105.018 E.07631
G1 X107.25 Y102.588 E.07631
G1 X107.601 Y100.18 E.07628
G1 X108.181 Y97.82 E.07622
G1 X108.987 Y95.528 E.07614
G1 X110.008 Y93.329 E.07604
G1 X111.236 Y91.242 E.07592
G1 X112.659 Y89.288 E.07579
G1 X114.263 Y87.486 E.07564
G1 X116.033 Y85.853 E.0755
G1 X117.95 Y84.405 E.07535
G1 X119.998 Y83.155 E.07522
G1 X122.156 Y82.115 E.0751
G1 X124.403 Y81.297 E.07499
G1 X126.719 Y80.706 E.07491
G1 X129.081 Y80.349 E.07492
G1 X131.018 Y80.252 E.0608
G1 X144.541 Y80.247 E.424
G1 X144.541 Y89.15 E.27913
M204 S1000
G1 X144.148 Y89.132 F4800
G1 E-.8 F2100
G1 Z.6 F720
G1 X142.907 Y81.115 F4800
G1 Z.2 F720
G1 E.8 F2100
M204 S800
;TYPE:Solid infill
;WIDTH:0.421942
G1 F1200
G1 X143.504 Y81.712 E.02658
G1 X143.504 Y82.248 E.01689
G1 X142.541 Y81.285 E.0429
G1 X142.005 Y81.285 E.01689
G1 X143.504 Y82.784 E.06679
G1 X143.504 Y83.32 E.01689
G1 X141.469 Y81.285 E.09067
G1 X140.934 Y81.286 E.01689
G1 X143.504 Y83.856 E.11455
G1 X143.504 Y84.392 E.01689
G1 X140.398 Y81.286 E.13843
G1 X139.862 Y81.286 E.01689
G1 X143.504 Y84.928 E.16232
G1 X143.504 Y85.464 E.01689
G1 X139.326 Y81.286 E.1862
G1 X138.79 Y81.286 E.01689
G1 X143.504 Y86 E.21008
G1 X143.504 Y86.536 E.01689
G1 X138.254 Y81.287 E.23396
G1 X137.719 Y81.287 E.01689
G1 X143.504 Y87.072 E.25784
G1 X143.504 Y87.608 E.01689
G1 X137.183 Y81.287 E.28173
G1 X136.647 Y81.287 E.01689
G1 X143.504 Y88.144 E.30561
G1 X143.504 Y88.173 E.00091
G1 X142.997 Y88.173 E.01598
G1 X136.111 Y81.287 E.30689
G1 X135.575 Y81.287 E.01689
G1 X142.461 Y88.173 E.30688
G1 X141.925 Y88.173 E.01689
G1 X135.039 Y81.288 E.30687
G1 X134.504 Y81.288 E.01689
G1 X141.389 Y88.173 E.30686
G1 X140.853 Y88.173 E.01689
G1 X133.968 Y81.288 E.30685
G1 X133.432 Y81.288 E.01689
G1 X140.316 Y88.173 E.30684
G1 X139.78 Y88.173 E.01689
G1 X132.896 Y81.288 E.30684
G1 X132.36 Y81.289 E.01689
G1 X139.244 Y88.173 E.30683
G1 X138.708 Y88.173 E.01689
G1 X131.824 Y81.289 E.30682
G1 X131.289 Y81.289 E.01689
G1 X138.172 Y88.173 E.30681
G1 X137.636 Y88.173 E.01689
G1 X130.767 Y81.303 E.30619
G1 X130.256 Y81.329 E.01611
G1 X137.1 Y88.173 E.30505
G1 X136.564 Y88.173 E.01689
G1 X129.746 Y81.354 E.30391
G1 X129.235 Y81.38 E.01611
G1 X136.028 Y88.173 E.30277
G1 X135.492 Y88.173 E.01689
G1 X128.765 Y81.446 E.29983
G1 X128.3 Y81.516 E.01484
G1 X134.956 Y88.173 E.29669
G1 X134.42 Y88.173 E.01689
G1 X127.834 Y81.586 E.29356
G1 X127.368 Y81.657 E.01484
M73 P1 R74
G1 X133.884 Y88.173 E.29042
G1 X133.348 Y88.173 E.01689
G1 X126.904 Y81.729 E.28721
G1 X126.477 Y81.838 E.01389
G1 X132.812 Y88.173 E.28235
G1 X132.276 Y88.173 E.01689
G1 X126.05 Y81.947 E.2775
G1 X125.623 Y82.056 E.01389
G1 X131.74 Y88.173 E.27264
G1 X131.204 Y88.173 E.01689
G1 X125.196 Y82.165 E.26778
G1 X124.769 Y82.274 E.01389
M73 Q1 S74
G1 X130.678 Y88.182 E.26336
G1 X130.158 Y88.198 E.01639
G1 X124.371 Y82.412 E.2579
G1 X123.978 Y82.555 E.01318
G1 X129.638 Y88.214 E.25224
G1 X129.362 Y88.223 E.00869
G1 X129.14 Y88.253 E.00706
G1 X123.586 Y82.698 E.24756
G1 X123.193 Y82.841 E.01318
G1 X128.667 Y88.316 E.24399
G1 X128.194 Y88.379 E.01504
G1 X122.8 Y82.985 E.24042
G1 X122.419 Y83.14 E.01296
G1 X127.721 Y88.442 E.23631
G1 X127.249 Y88.506 E.01501
G1 X122.057 Y83.314 E.2314
G1 X121.696 Y83.488 E.01266
G1 X126.812 Y88.604 E.22802
G1 X126.374 Y88.703 E.01413
G1 X121.334 Y83.662 E.22464
G1 X120.972 Y83.837 E.01266
G1 X125.936 Y88.801 E.22127
G1 X125.499 Y88.9 E.01413
G1 X120.61 Y84.011 E.21789
