; generated by PrusaSlicer 2.4.2+linux-x64-GTK3 on 2022-07-31 at 10:00:01 UTC


;
;
; 

; external perimeters extrusion width = 0.45mm
; perimeters extrusion width = 0.45mm
; infill extrusion width = 0.45mm
; solid infill extrusion width = 0.45mm
; top infill extrusion width = 0.40mm
; support material extrusion width = 0.35mm
; first layer extrusion width = 0.42mm

M73 P0 R7
M73 Q0 S7
M201 X1000 Y1000 Z200 E5000 ; sets maximum accelerations, mm/sec^2
M203 X200 Y200 Z12 E120 ; sets maximum feedrates, mm / sec
M204 P1250 R1250 T1250 ; sets acceleration (P, T) and retract acceleration (R), mm/sec^2
M205 X8.00 Y8.00 Z0.40 E4.50 ; sets the jerk limits, mm/sec
M205 S0 T0 ; sets the minimum extruding and travel feed rate, mm/sec
M107
;TYPE:Custom
M862.3 P "MK3S" ; printer model check
M862.1 P0.4 ; nozzle diameter check
M115 U3.11.0 ; tell printer latest fw version
G90 ; use absolute coordinates
M83 ; extruder relative mode
M104 S215 ; set extruder temp
M140 S60 ; set bed temp
M190 S60 ; wait for bed temp
M109 S215 ; wait for extruder temp
G28 W ; home all without mesh bed level
G80 ; mesh bed leveling
G1 Z0.2 F720
G1 Y-3 F1000 ; go outside print area
G92 E0
G1 X60 E9 F1000 ; intro line
G1 X100 E12.5 F1000 ; intro line
G92 E0
M221 S95

; Don't change E values below. Excessive value can damage the printer.
M907 E430 ; set extruder motor current
G21 ; set units to millimeters
G90 ; use absolute coordinates
M83 ; use relative distances for extrusion
M900 K0.05 ; Filament gcode LA 1.5
M900 K30 ; Filament gcode LA 1.0
M107
;LAYER_CHANGE
;Z:0.2
;HEIGHT:0.2
;BEFORE_LAYER_CHANGE
G92 E0.0
;0.2


G1 E-.8 F2100
M73 P1 R7
M73 Q1 S7
G1 Z.4 F720
;AFTER_LAYER_CHANGE
;0.2
G1 X117.882 Y89.24 F4800
G1 Z.2 F720
G1 E.8 F2100
M204 S800
;TYPE:Skirt/Brim
;WIDTH:0.42
G1 F1200
G1 X119.089 Y88.401 E.04612
G1 X120 Y88.246 E.02896
G1 X130 Y88.246 E.31354
G1 X131.417 Y88.639 E.04612
G1 X132.431 Y89.705 E.04612
G1 X132.722 Y90.581 E.02896
G1 X136.722 Y116.581 E.8248
G1 X136.754 Y119 E.07585
M73 P2 R7
M73 Q2 S7
G1 X136.361 Y120.417 E.04612
G1 X135.295 Y121.431 E.04612
G1 X134 Y121.754 E.04186
G1 X116 Y121.754 E.56438
G1 X114.583 Y121.361 E.04612
G1 X113.569 Y120.295 E.04612
G1 X113.246 Y119 E.04186
G1 X113.278 Y116.581 E.07585
G1 X117.278 Y90.581 E.8248
G1 X117.857 Y89.295 E.04424
M204 S1000
G1 X118.21 Y89.462 F4800
M204 S800
G1 F1200
G1 X118.236 Y89.406 E.00195
G1 X120 Y88.623 E.06051
G1 X130 Y88.623 E.31354
G1 X131.307 Y89.015 E.04278
G1 X132.349 Y90.639 E.06051
G1 X136.349 Y116.639 E.8248
G1 X136.377 Y119 E.07405
M73 P3 R7
M73 Q3 S7
G1 X135.985 Y120.307 E.04278
G1 X134.94 Y121.183 E.04278
G1 X134 Y121.377 E.03008
G1 X116 Y121.377 E.56438
G1 X114.693 Y120.985 E.04278
G1 X113.817 Y119.94 E.04278
G1 X113.623 Y119 E.03008
G1 X113.651 Y116.639 E.07405
G1 X117.651 Y90.639 E.8248
G1 X118.184 Y89.517 E.03895
M204 S1000
; printing object murray-Reprogramming_buttonpush_tool.stl id:0 copy 0
;WIPE_START
G1 F3840
G1 X118.236 Y89.406 E-.06345
G1 X119.462 Y88.862 E-.69655
;WIPE_END
G1 E-.04 F2100
G1 Z.6 F720
G1 X120.787 Y91.787 F4800
G1 Z.2 F720
G1 E.8 F2100
M204 S800
;TYPE:Perimeter
G1 F1200
G1 X129.213 Y91.787 E.26419
G1 X129.213 Y117.787 E.81521
G1 X133.213 Y117.787 E.12542
M73 P4 R7
M73 Q4 S7
G1 X133.213 Y118.213 E.01335
G1 X116.787 Y118.213 E.51502
G1 X116.787 Y117.787 E.01335
G1 X120.787 Y117.787 E.12542
G1 X120.787 Y91.847 E.81333
M204 S1000
G1 X120.41 Y91.41 F4800
M204 S800
;TYPE:External perimeter
G1 F1200
G1 X129.59 Y91.41 E.28783
G1 X129.59 Y117.41 E.81521
G1 X133.59 Y117.41 E.12542
M73 P5 R7
M73 Q5 S7
G1 X133.59 Y118.59 E.037
G1 X116.41 Y118.59 E.53867
G1 X116.41 Y117.41 E.037
G1 X120.41 Y117.41 E.12542
G1 X120.41 Y91.47 E.81333
M204 S1000
G1 X120.746 Y91.627 F4800
G1 E-.8 F2100
G1 Z.6 F720
G1 X129.1 Y92.664 F4800
G1 Z.2 F720
G1 E.8 F2100
M204 S800
;TYPE:Solid infill
;WIDTH:0.420776
G1 F1200
G1 X128.506 Y92.07 E.0264
G1 X127.971 Y92.07 E.01679
G1 X128.93 Y93.029 E.04261
G1 X128.93 Y93.563 E.01679
G1 X127.437 Y92.07 E.06635
G1 X126.902 Y92.07 E.01679
G1 X128.93 Y94.098 E.09009
G1 X128.93 Y94.632 E.01679
M73 P6 R7
M73 Q6 S7
G1 X126.368 Y92.07 E.11384
G1 X125.834 Y92.07 E.01679
G1 X128.93 Y95.166 E.13758
G1 X128.93 Y95.701 E.01679
G1 X125.299 Y92.07 E.16133
G1 X124.765 Y92.07 E.01679
G1 X128.93 Y96.235 E.18507
G1 X128.93 Y96.769 E.01679
G1 X124.231 Y92.07 E.20881
G1 X123.696 Y92.07 E.01679
G1 X128.93 Y97.304 E.23256
G1 X128.93 Y97.838 E.01679
G1 X123.162 Y92.07 E.2563
G1 X122.628 Y92.07 E.01679
G1 X128.93 Y98.372 E.28004
G1 X128.93 Y98.907 E.01679
G1 X122.093 Y92.07 E.30379
G1 X121.559 Y92.07 E.01679
G1 X128.93 Y99.441 E.32753
G1 X128.93 Y99.976 E.01679
G1 X121.07 Y92.115 E.34925
G1 X121.07 Y92.65 E.01679
G1 X128.93 Y100.51 E.34925
G1 X128.93 Y101.044 E.01679
M73 P7 R7
M73 Q7 S7
G1 X121.07 Y93.184 E.34925
G1 X121.07 Y93.718 E.01679
G1 X128.93 Y101.579 E.34925
G1 X128.93 Y102.113 E.01679
G1 X121.07 Y94.253 E.34925
G1 X121.07 Y94.787 E.01679
G1 X128.93 Y102.647 E.34925
G1 X128.93 Y103.182 E.01679
G1 X121.07 Y95.322 E.34925
G1 X121.07 Y95.856 E.01679
G1 X128.93 Y103.716 E.34925
G1 X128.93 Y104.251 E.01679
G1 X121.07 Y96.39 E.34925
G1 X121.07 Y96.925 E.01679
M73 P8 R7
M73 Q8 S7
G1 X128.93 Y104.785 E.34925
G1 X128.93 Y105.319 E.01679
G1 X121.07 Y97.459 E.34925
G1 X121.07 Y97.993 E.01679
G1 X128.93 Y105.854 E.34925
G1 X128.93 Y106.388 E.01679
G1 X121.07 Y98.528 E.34925
G1 X121.07 Y99.062 E.01679
G1 X128.93 Y106.922 E.34925
G1 X128.93 Y107.457 E.01679
G1 X121.07 Y99.597 E.34925
G1 X121.07 Y100.131 E.01679
G1 X128.93 Y107.991 E.34925
G1 X128.93 Y108.525 E.01679
G1 X121.07 Y100.665 E.34925
G1 X121.07 Y101.2 E.01679
M73 P9 R7
M73 Q9 S7
G1 X128.93 Y109.06 E.34925
G1 X128.93 Y109.594 E.01679
G1 X121.07 Y101.734 E.34925
G1 X121.07 Y102.268 E.01679
G1 X128.93 Y110.129 E.34925
G1 X128.93 Y110.663 E.01679
G1 X121.07 Y102.803 E.34925
G1 X121.07 Y103.337 E.01679
G1 X128.93 Y111.197 E.34925
G1 X128.93 Y111.732 E.01679
G1 X121.07 Y103.871 E.34925
G1 X121.07 Y104.406 E.01679
M73 P9 R6
G1 X128.93 Y112.266 E.34925
G1 X128.93 Y112.8 E.01679
M73 Q9 S6
G1 X121.07 Y104.94 E.34925
G1 X121.07 Y105.475 E.01679
M73 P10 R6
M73 Q10 S6
G1 X128.93 Y113.335 E.34925
G1 X128.93 Y113.869 E.01679
G1 X121.07 Y106.009 E.34925
G1 X121.07 Y106.543 E.01679
G1 X128.93 Y114.404 E.34925
G1 X128.93 Y114.938 E.01679
G1 X121.07 Y107.078 E.34925
G1 X121.07 Y107.612 E.01679
G1 X128.93 Y115.472 E.34925
G1 X128.93 Y116.007 E.01679
G1 X121.07 Y108.146 E.34925
G1 X121.07 Y108.681 E.01679
G1 X128.93 Y116.541 E.34925
G1 X128.93 Y117.075 E.01679
G1 X121.07 Y109.215 E.34925
G1 X121.07 Y109.75 E.01679
M73 P11 R6
M73 Q11 S6
G1 X128.93 Y117.61 E.34925
G1 X128.93 Y117.93 E.01007
G1 X128.716 Y117.93 E.00672
G1 X121.07 Y110.284 E.33975
G1 X121.07 Y110.818 E.01679
G1 X128.182 Y117.93 E.316
G1 X127.647 Y117.93 E.01679
G1 X121.07 Y111.353 E.29226
G1 X121.07 Y111.887 E.01679
G1 X127.113 Y117.93 E.26851
G1 X126.579 Y117.93 E.01679
G1 X121.07 Y112.421 E.24477
G1 X121.07 Y112.956 E.01679
G1 X126.044 Y117.93 E.22103
G1 X125.51 Y117.93 E.01679
G1 X121.07 Y113.49 E.19728
G1 X121.07 Y114.024 E.01679
G1 X124.976 Y117.93 E.17354
G1 X124.441 Y117.93 E.01679
G1 X121.07 Y114.559 E.1498
G1 X121.07 Y115.093 E.01679
M73 P12 R6
M73 Q12 S6
G1 X123.907 Y117.93 E.12605
G1 X123.372 Y117.93 E.01679
G1 X121.07 Y115.628 E.10231
G1 X121.07 Y116.162 E.01679
G1 X122.838 Y117.93 E.07857
G1 X122.304 Y117.93 E.01679
G1 X121.07 Y116.696 E.05482
G1 X121.07 Y117.231 E.01679
G1 X121.769 Y117.93 E.03108
G1 X121.235 Y117.93 E.01679
G1 X120.9 Y117.595 E.01487
M204 S1000
; stop printing object murray-Reprogramming_buttonpush_tool.stl id:0 copy 0
M106 S84.15
;LAYER_CHANGE
;Z:0.4
;HEIGHT:0.2
;BEFORE_LAYER_CHANGE
G92 E0.0
;0.4


;WIPE_START
G1 F3840
G1 X121.235 Y117.93 E-.24595
G1 X121.769 Y117.93 E-.27762
G1 X121.448 Y117.608 E-.23642
;WIPE_END
G1 E-.04 F2100
G1 Z.6 F720
;AFTER_LAYER_CHANGE
;0.4
G1 X121.448 Y121.754 F4800
G1 Z.4 F720
G1 E.8 F2100
;TYPE:Skirt/Brim
;WIDTH:0.42
G1 F3000
G1 X116 Y121.754 E.1708
G1 X114.583 Y121.361 E.04612
G1 X113.569 Y120.295 E.04612
G1 X113.246 Y119 E.04186
G1 X113.278 Y116.581 E.07585
G1 X117.278 Y90.581 E.8248
G1 X117.882 Y89.24 E.04612
G1 X119.089 Y88.401 E.04612
G1 X120 Y88.246 E.02896
G1 X130 Y88.246 E.31354
G1 X131.417 Y88.639 E.04612
G1 X132.431 Y89.705 E.04612
G1 X132.722 Y90.581 E.02896
G1 X136.722 Y116.581 E.8248
G1 X136.754 Y119 E.07585
G1 X136.361 Y120.417 E.04612
G1 X135.295 Y121.431 E.04612
G1 X134 Y121.754 E.04186
G1 X121.508 Y121.754 E.39169
G1 X121.508 Y121.377 F4800
G1 F3000
G1 X116 Y121.377 E.17268
G1 X114.693 Y120.985 E.04278
G1 X113.817 Y119.94 E.04278
G1 X113.623 Y119 E.03008
G1 X113.651 Y116.639 E.07405
G1 X117.651 Y90.639 E.8248
G1 X118.236 Y89.406 E.04278
G1 X120 Y88.623 E.06051
M73 P13 R6
G1 X130 Y88.623 E.31354
M73 Q13 S6
G1 X131.307 Y89.015 E.04278
G1 X132.349 Y90.639 E.06051
G1 X136.349 Y116.639 E.8248
G1 X136.377 Y119 E.07405
G1 X135.985 Y120.307 E.04278
G1 X134.94 Y121.183 E.04278
G1 X134 Y121.377 E.03008
G1 X121.568 Y121.377 E.38981
; printing object murray-Reprogramming_buttonpush_tool.stl id:0 copy 0
;WIPE_START
G1 F3840
G1 X120.105 Y121.377 E-.76
;WIPE_END
G1 E-.04 F2100
G1 Z.8 F720
G1 X127.494 Y118.389 F4800
G1 X129.389 Y117.611
G1 X129.389 Y117.611
G1 X129.368 Y117.632
G1 Z.4 F720
G1 E.8 F2100
M204 S800
;TYPE:Perimeter
;WIDTH:0.45
G1 F2700
G1 X133.368 Y117.632 E.1354
G1 X133.368 Y118.368 E.02491
G1 X116.632 Y118.368 E.56649
G1 X116.632 Y117.632 E.02491
G1 X120.632 Y117.632 E.1354
G1 X120.632 Y91.632 E.88007
G1 X129.368 Y91.632 E.2957
G1 X129.368 Y117.572 E.87804
M204 S1000
G1 X129.775 Y117.225 F4800
M204 S800
;TYPE:External perimeter
G1 F1500
G1 X133.775 Y117.225 E.1354
G1 X133.775 Y118.775 E.05247
G1 X116.225 Y118.775 E.59405
G1 X116.225 Y117.225 E.05247
M73 P14 R6
M73 Q14 S6
G1 X120.225 Y117.225 E.1354
G1 X120.225 Y91.225 E.88007
G1 X129.775 Y91.225 E.32326
G1 X129.775 Y117.165 E.87804
M204 S1000
G1 X129.822 Y117.622 F4800
G1 X129.246 Y117.211
;TYPE:Solid infill
;WIDTH:0.453761
G1 X128.395 Y118.063 E.04112
G1 X127.814 Y118.063 E.01985
G1 X129.063 Y116.814 E.06034
G1 X129.063 Y116.233 E.01985
G1 X127.233 Y118.063 E.08841
G1 X126.652 Y118.063 E.01985
G1 X129.063 Y115.652 E.11648
G1 X129.063 Y115.071 E.01985
G1 X126.07 Y118.063 E.14455
G1 X125.489 Y118.063 E.01985
G1 X129.063 Y114.489 E.17262
G1 X129.063 Y113.908 E.01985
G1 X124.908 Y118.063 E.20069
G1 X124.327 Y118.063 E.01985
G1 X129.063 Y113.327 E.22876
G1 X129.063 Y112.746 E.01985
G1 X123.746 Y118.063 E.25683
G1 X123.165 Y118.063 E.01985
G1 X129.063 Y112.165 E.2849
G1 X129.063 Y111.584 E.01985
G1 X122.584 Y118.063 E.31297
M73 P15 R6
G1 X122.003 Y118.063 E.01985
M73 Q15 S6
G1 X129.063 Y111.003 E.34104
G1 X129.063 Y110.422 E.01985
G1 X121.422 Y118.063 E.36911
G1 X121.141 Y118.063 E.00961
G1 X121.141 Y117.763 E.01023
G1 X129.063 Y109.841 E.38271
G1 X129.063 Y109.26 E.01985
G1 X120.937 Y117.386 E.39254
G1 X120.937 Y116.805 E.01985
G1 X129.063 Y108.679 E.39254
G1 X129.063 Y108.098 E.01985
G1 X120.937 Y116.224 E.39254
G1 X120.937 Y115.643 E.01985
G1 X129.063 Y107.517 E.39254
G1 X129.063 Y106.936 E.01985
G1 X120.937 Y115.061 E.39254
G1 X120.937 Y114.48 E.01985
G1 X129.063 Y106.355 E.39254
G1 X129.063 Y105.774 E.01985
G1 X120.937 Y113.899 E.39254
G1 X120.937 Y113.318 E.01985
G1 X129.063 Y105.193 E.39254
G1 X129.063 Y104.612 E.01985
G1 X120.937 Y112.737 E.39254
G1 X120.937 Y112.156 E.01985
G1 X129.063 Y104.031 E.39254
G1 X129.063 Y103.45 E.01985
G1 X120.937 Y111.575 E.39254
G1 X120.937 Y110.994 E.01985
G1 X129.063 Y102.869 E.39254
G1 X129.063 Y102.288 E.01985
G1 X120.937 Y110.413 E.39254
G1 X120.937 Y109.832 E.01985
G1 X129.063 Y101.707 E.39254
G1 X129.063 Y101.126 E.01985
G1 X120.937 Y109.251 E.39254
G1 X120.937 Y108.67 E.01985
G1 X129.063 Y100.545 E.39254
G1 X129.063 Y99.964 E.01985
M73 P16 R6
G1 X120.937 Y108.089 E.39254
M73 Q16 S6
G1 X120.937 Y107.508 E.01985
G1 X129.063 Y99.383 E.39254
G1 X129.063 Y98.802 E.01985
G1 X120.937 Y106.927 E.39254
G1 X120.937 Y106.346 E.01985
G1 X129.063 Y98.221 E.39254
G1 X129.063 Y97.64 E.01985
G1 X120.937 Y105.765 E.39254
G1 X120.937 Y105.184 E.01985
G1 X129.063 Y97.059 E.39254
G1 X129.063 Y96.478 E.01985
G1 X120.937 Y104.603 E.39254
G1 X120.937 Y104.022 E.01985
G1 X129.063 Y95.897 E.39254
G1 X129.063 Y95.316 E.01985
G1 X120.937 Y103.441 E.39254
G1 X120.937 Y102.86 E.01985
G1 X129.063 Y94.735 E.39254
G1 X129.063 Y94.154 E.01985
G1 X120.937 Y102.279 E.39254
G1 X120.937 Y101.698 E.01985
G1 X129.063 Y93.573 E.39254
G1 X129.063 Y92.992 E.01985
G1 X120.937 Y101.117 E.39254
G1 X120.937 Y100.536 E.01985
G1 X129.063 Y92.411 E.39254
G1 X129.063 Y91.937 E.01617
G1 X128.955 Y91.937 E.00367
G1 X120.937 Y99.955 E.38735
G1 X120.937 Y99.374 E.01985
G1 X128.374 Y91.937 E.35928
G1 X127.793 Y91.937 E.01985
G1 X120.937 Y98.793 E.33121
G1 X120.937 Y98.212 E.01985
G1 X127.212 Y91.937 E.30314
G1 X126.631 Y91.937 E.01985
G1 X120.937 Y97.631 E.27507
G1 X120.937 Y97.05 E.01985
G1 X126.05 Y91.937 E.247
G1 X125.469 Y91.937 E.01985
M73 P17 R6
G1 X120.937 Y96.469 E.21893
G1 X120.937 Y95.888 E.01985
M73 Q17 S6
G1 X124.888 Y91.937 E.19086
G1 X124.307 Y91.937 E.01985
G1 X120.937 Y95.307 E.16279
G1 X120.937 Y94.726 E.01985
G1 X123.726 Y91.937 E.13472
G1 X123.145 Y91.937 E.01985
G1 X120.937 Y94.145 E.10665
G1 X120.937 Y93.564 E.01985
G1 X122.564 Y91.937 E.07858
G1 X121.983 Y91.937 E.01985
G1 X120.937 Y92.983 E.05051
G1 X120.937 Y92.402 E.01985
G1 X121.585 Y91.754 E.03129
;WIPE_START
G1 F3840
G1 X120.937 Y92.402 E-.47584
G1 X120.937 Y92.949 E-.28416
;WIPE_END
G1 E-.04 F2100
G1 Z.8 F720
G1 X120.611 Y92.949 F4800
G1 X120.611 Y117.611
G1 X116.611 Y117.611
G1 X116.611 Y118
G1 X116.836 Y118
G1 Z.4 F720
G1 E.8 F2100
;TYPE:Gap fill
;WIDTH:0.371692
G1 F2400
G1 X120.836 Y118 E.10935
G1 E-.8 F2100
G1 Z.8 F720
G1 X129.164 Y118 F4800
G1 Z.4 F720
G1 E.8 F2100
G1 F2400
G1 X133.164 Y118 E.10935
; stop printing object murray-Reprogramming_buttonpush_tool.stl id:0 copy 0
M106 S170.85
;LAYER_CHANGE
;Z:0.6
;HEIGHT:0.2
;BEFORE_LAYER_CHANGE
G92 E0.0
;0.6


;WIPE_START
G1 F3840
G1 X131.702 Y118 E-.76
;WIPE_END
G1 E-.04 F2100
G1 Z.8 F720
;AFTER_LAYER_CHANGE
;0.6
G1 X131.702 Y121.754 F4800
G1 Z.6 F720
G1 E.8 F2100
;TYPE:Skirt/Brim
;WIDTH:0.42
G1 F3000
G1 X116 Y121.754 E.49231
G1 X114.583 Y121.361 E.04612
G1 X113.569 Y120.295 E.04612
G1 X113.246 Y119 E.04186
G1 X113.278 Y116.581 E.07585
G1 X117.278 Y90.581 E.8248
G1 X117.882 Y89.24 E.04612
G1 X119.089 Y88.401 E.04612
G1 X120 Y88.246 E.02896
G1 X130 Y88.246 E.31354
G1 X131.417 Y88.639 E.04612
G1 X132.431 Y89.705 E.04612
G1 X132.722 Y90.581 E.02896
G1 X136.722 Y116.581 E.8248
G1 X136.754 Y119 E.07585
M73 P18 R6
M73 Q18 S6
G1 X136.361 Y120.417 E.04612
G1 X135.295 Y121.431 E.04612
G1 X134 Y121.754 E.04186
G1 X131.762 Y121.754 E.07019
G1 X131.762 Y121.377 F4800
G1 F3000
G1 X116 Y121.377 E.49419
G1 X114.693 Y120.985 E.04278
G1 X113.817 Y119.94 E.04278
G1 X113.623 Y119 E.03008
G1 X113.651 Y116.639 E.07405
G1 X117.651 Y90.639 E.8248
G1 X118.236 Y89.406 E.04278
G1 X120 Y88.623 E.06051
G1 X130 Y88.623 E.31354
G1 X131.307 Y89.015 E.04278
G1 X132.349 Y90.639 E.06051
G1 X136.349 Y116.639 E.8248
G1 X136.377 Y119 E.07405
G1 X135.985 Y120.307 E.04278
G1 X134.94 Y121.183 E.04278
G1 X134 Y121.377 E.03008
G1 X131.822 Y121.377 E.0683
; printing object murray-Reprogramming_buttonpush_tool.stl id:0 copy 0
;WIPE_START
G1 F3840
G1 X130.359 Y121.377 E-.76
;WIPE_END
G1 E-.04 F2100
G1 Z1 F720
G1 X129.568 Y118.389 F4800
G1 X129.389 Y117.611
G1 X129.389 Y117.611
G1 X129.368 Y117.632
G1 Z.6 F720
G1 E.8 F2100
M204 S800
;TYPE:Perimeter
;WIDTH:0.45
G1 F2700
G1 X133.368 Y117.632 E.1354
G1 X133.368 Y118.368 E.02491
G1 X116.632 Y118.368 E.56649
G1 X116.632 Y117.632 E.02491
G1 X120.632 Y117.632 E.1354
G1 X120.632 Y91.632 E.88007
G1 X129.368 Y91.632 E.2957
G1 X129.368 Y117.572 E.87804
M204 S1000
M73 P19 R6
M73 Q19 S6
G1 X129.775 Y117.225 F4800
M204 S800
;TYPE:External perimeter
G1 F1500
G1 X133.775 Y117.225 E.1354
G1 X133.775 Y118.775 E.05247
G1 X116.225 Y118.775 E.59405
G1 X116.225 Y117.225 E.05247
G1 X120.225 Y117.225 E.1354
G1 X120.225 Y91.225 E.88007
G1 X129.775 Y91.225 E.32326
G1 X129.775 Y117.165 E.87804
M204 S1000
