; generated by PrusaSlicer 2.4.2+linux-x64-GTK3 on 2022-07-25 at 06:41:54 UTC


;
;
; 

; external perimeters extrusion width = 0.45mm
; perimeters extrusion width = 0.45mm
; infill extrusion width = 0.45mm
; solid infill extrusion width = 0.45mm
; top infill extrusion width = 0.40mm
; support material extrusion width = 0.35mm
; first layer extrusion width = 0.42mm

M73 P0 R4
M73 Q0 S4
M201 X1000 Y1000 Z200 E5000 ; sets maximum accelerations, mm/sec^2
M203 X200 Y200 Z12 E120 ; sets maximum feedrates, mm / sec
M204 P1250 R1250 T1250 ; sets acceleration (P, T) and retract acceleration (R), mm/sec^2
M205 X8.00 Y8.00 Z0.40 E4.50 ; sets the jerk limits, mm/sec
M205 S0 T0 ; sets the minimum extruding and travel feed rate, mm/sec
M107
;TYPE:Custom
M862.3 P "MK3S" ; printer model check
M862.1 P0.4 ; nozzle diameter check
M115 U3.11.0 ; tell printer latest fw version
G90 ; use absolute coordinates
M83 ; extruder relative mode
M104 S215 ; set extruder temp
M140 S60 ; set bed temp
M190 S60 ; wait for bed temp
M109 S215 ; wait for extruder temp
G28 W ; home all without mesh bed level
G80 ; mesh bed leveling
G1 Z0.2 F720
G1 Y-3 F1000 ; go outside print area
G92 E0
G1 X60 E9 F1000 ; intro line
G1 X100 E12.5 F1000 ; intro line
G92 E0
M221 S95

; Don't change E values below. Excessive value can damage the printer.
M907 E430 ; set extruder motor current
G21 ; set units to millimeters
G90 ; use absolute coordinates
M83 ; use relative distances for extrusion
M900 K0.05 ; Filament gcode LA 1.5
M900 K30 ; Filament gcode LA 1.0
M107
;LAYER_CHANGE
;Z:0.2
;HEIGHT:0.2
;BEFORE_LAYER_CHANGE
G92 E0.0
;0.2


M73 P1 R4
M73 Q1 S4
G1 E-.8 F2100
M73 P2 R4
M73 Q2 S4
G1 Z.4 F720
;AFTER_LAYER_CHANGE
;0.2
G1 X120.483 Y89.744 F4800
G1 Z.2 F720
G1 E.8 F2100
M204 S800
;TYPE:Skirt/Brim
;WIDTH:0.42
G1 F1200
G1 X121.549 Y88.731 E.04612
G1 X122.844 Y88.407 E.04186
G1 X127.156 Y88.407 E.13517
G1 X128.573 Y88.8 E.04612
G1 X129.586 Y89.866 E.04612
G1 X129.91 Y91.161 E.04186
G1 X129.91 Y118.839 E.86779
G1 X129.517 Y120.256 E.04612
M73 P3 R4
M73 Q3 S4
G1 X128.451 Y121.269 E.04612
G1 X126.668 Y121.549 E.05658
G1 X122.357 Y120.774 E.13734
G1 X121.031 Y120.136 E.04612
G1 X120.223 Y118.908 E.04612
G1 X120.09 Y118.063 E.0268
G1 X120.09 Y91.161 E.84348
G1 X120.467 Y89.802 E.04424
M204 S1000
G1 X120.841 Y89.914 F4800
M204 S800
G1 F1200
G1 X120.859 Y89.854 E.00195
G1 X121.905 Y88.978 E.04278
G1 X122.844 Y88.784 E.03008
M73 P4 R4
M73 Q4 S4
G1 X127.156 Y88.784 E.13517
G1 X128.463 Y89.176 E.04278
G1 X129.339 Y90.222 E.04278
G1 X129.533 Y91.161 E.03008
G1 X129.533 Y118.839 E.86779
G1 X129.141 Y120.146 E.04278
G1 X128.095 Y121.022 E.04278
G1 X126.735 Y121.178 E.04294
G1 X122.424 Y120.403 E.13734
G1 X121.207 Y119.786 E.04278
G1 X120.467 Y118.063 E.05878
G1 X120.467 Y91.161 E.84348
G1 X120.824 Y89.971 E.03895
M204 S1000
; printing object murray-Piston.stl id:0 copy 0
;WIPE_START
M73 P5 R4
M73 Q5 S4
G1 F3840
G1 X120.859 Y89.854 E-.06345
G1 X121.887 Y88.993 E-.69655
;WIPE_END
G1 E-.04 F2100
G1 Z.6 F720
G1 X123.254 Y91.571 F4800
G1 Z.2 F720
G1 E.8 F2100
M204 S800
;TYPE:External perimeter
G1 F1200
G1 X126.746 Y91.571 E.10946
G1 X126.746 Y118.348 E.83956
G1 X123.254 Y117.72 E.11122
G1 X123.254 Y91.631 E.81799
M204 S1000
M73 P6 R4
M73 Q6 S4
G1 X123.609 Y91.756 F4800
G1 X123.631 Y91.949
M204 S800
;TYPE:Perimeter
G1 F1200
G1 X126.369 Y91.949 E.08582
G1 X126.369 Y117.897 E.8136
G1 X123.631 Y117.405 E.08719
G1 X123.631 Y92.009 E.79628
M204 S1000
M73 P7 R4
M73 Q7 S4
G1 E-.8 F2100
G1 Z.6 F720
G1 X126.255 Y92.827 F4800
G1 Z.2 F720
G1 E.8 F2100
M204 S800
;TYPE:Solid infill
;WIDTH:0.421381
G1 F1200
G1 X125.66 Y92.231 E.0265
G1 X125.125 Y92.231 E.01684
G1 X126.086 Y93.192 E.04277
G1 X126.086 Y93.728 E.01684
G1 X124.589 Y92.231 E.06659
G1 X124.054 Y92.231 E.01684
G1 X126.086 Y94.263 E.09041
G1 X126.086 Y94.798 E.01684
G1 X123.914 Y92.627 E.09664
G1 X123.914 Y93.162 E.01684
G1 X126.086 Y95.333 E.09664
G1 X126.086 Y95.869 E.01684
G1 X123.914 Y93.697 E.09664
G1 X123.914 Y94.232 E.01684
G1 X126.086 Y96.404 E.09664
G1 X126.086 Y96.939 E.01684
M73 P8 R4
M73 Q8 S4
G1 X123.914 Y94.768 E.09664
G1 X123.914 Y95.303 E.01684
G1 X126.086 Y97.474 E.09664
G1 X126.086 Y98.009 E.01684
G1 X123.914 Y95.838 E.09664
G1 X123.914 Y96.373 E.01684
G1 X126.086 Y98.545 E.09664
G1 X126.086 Y99.08 E.01684
G1 X123.914 Y96.908 E.09664
G1 X123.914 Y97.444 E.01684
G1 X126.086 Y99.615 E.09664
G1 X126.086 Y100.15 E.01684
G1 X123.914 Y97.979 E.09664
G1 X123.914 Y98.514 E.01684
G1 X126.086 Y100.686 E.09664
G1 X126.086 Y101.221 E.01684
G1 X123.914 Y99.049 E.09664
G1 X123.914 Y99.585 E.01684
G1 X126.086 Y101.756 E.09664
G1 X126.086 Y102.291 E.01684
G1 X123.914 Y100.12 E.09664
G1 X123.914 Y100.655 E.01684
G1 X126.086 Y102.826 E.09664
G1 X126.086 Y103.362 E.01684
G1 X123.914 Y101.19 E.09664
G1 X123.914 Y101.726 E.01684
G1 X126.086 Y103.897 E.09664
G1 X126.086 Y104.432 E.01684
G1 X123.914 Y102.261 E.09664
G1 X123.914 Y102.796 E.01684
M73 P9 R4
G1 X126.086 Y104.967 E.09664
M73 Q9 S4
G1 X126.086 Y105.503 E.01684
G1 X123.914 Y103.331 E.09664
G1 X123.914 Y103.866 E.01684
G1 X126.086 Y106.038 E.09664
G1 X126.086 Y106.573 E.01684
G1 X123.914 Y104.402 E.09664
G1 X123.914 Y104.937 E.01684
G1 X126.086 Y107.108 E.09664
G1 X126.086 Y107.643 E.01684
G1 X123.914 Y105.472 E.09664
G1 X123.914 Y106.007 E.01684
G1 X126.086 Y108.179 E.09664
G1 X126.086 Y108.714 E.01684
G1 X123.914 Y106.543 E.09664
G1 X123.914 Y107.078 E.01684
G1 X126.086 Y109.249 E.09664
G1 X126.086 Y109.784 E.01684
G1 X123.914 Y107.613 E.09664
G1 X123.914 Y108.148 E.01684
G1 X126.086 Y110.32 E.09664
G1 X126.086 Y110.855 E.01684
G1 X123.914 Y108.683 E.09664
G1 X123.914 Y109.219 E.01684
G1 X126.086 Y111.39 E.09664
G1 X126.086 Y111.925 E.01684
G1 X123.914 Y109.754 E.09664
G1 X123.914 Y110.289 E.01684
G1 X126.086 Y112.461 E.09664
G1 X126.086 Y112.996 E.01684
G1 X123.914 Y110.824 E.09664
M73 P10 R4
G1 X123.914 Y111.36 E.01684
M73 Q10 S4
G1 X126.086 Y113.531 E.09664
G1 X126.086 Y114.066 E.01684
G1 X123.914 Y111.895 E.09664
G1 X123.914 Y112.43 E.01684
G1 X126.086 Y114.601 E.09664
G1 X126.086 Y115.137 E.01684
G1 X123.914 Y112.965 E.09664
G1 X123.914 Y113.5 E.01684
G1 X126.086 Y115.672 E.09664
G1 X126.086 Y116.207 E.01684
G1 X123.914 Y114.036 E.09664
G1 X123.914 Y114.571 E.01684
G1 X126.086 Y116.742 E.09664
G1 X126.086 Y117.278 E.01684
G1 X123.914 Y115.106 E.09664
G1 X123.914 Y115.641 E.01684
G1 X125.776 Y117.503 E.08287
G1 X125.124 Y117.386 E.02087
G1 X123.914 Y116.177 E.05382
G1 X123.914 Y116.712 E.01684
G1 X124.681 Y117.479 E.03414
M204 S1000
; stop printing object murray-Piston.stl id:0 copy 0
M106 S84.15
;LAYER_CHANGE
;Z:0.4
;HEIGHT:0.2
;BEFORE_LAYER_CHANGE
G92 E0.0
;0.4


;WIPE_START
G1 F3840
G1 X123.914 Y116.712 E-.56355
G1 X123.914 Y116.334 E-.19645
;WIPE_END
G1 E-.04 F2100
G1 Z.6 F720
;AFTER_LAYER_CHANGE
;0.4
G1 X120.09 Y116.334 F4800
G1 Z.4 F720
G1 E.8 F2100
;TYPE:Skirt/Brim
;WIDTH:0.42
G1 F1977
G1 X120.09 Y91.161 E.78926
G1 X120.483 Y89.744 E.04612
M73 P11 R4
M73 Q11 S4
G1 X121.549 Y88.731 E.04612
G1 X122.844 Y88.407 E.04186
G1 X127.156 Y88.407 E.13517
G1 X128.573 Y88.8 E.04612
G1 X129.586 Y89.866 E.04612
G1 X129.91 Y91.161 E.04186
G1 X129.91 Y118.839 E.86779
G1 X129.517 Y120.256 E.04612
G1 X128.451 Y121.269 E.04612
G1 X126.668 Y121.549 E.05658
G1 X122.357 Y120.774 E.13734
G1 X121.031 Y120.136 E.04612
G1 X120.223 Y118.908 E.04612
G1 X120.09 Y118.063 E.0268
G1 X120.09 Y116.394 E.05234
G1 X120.467 Y116.394 F4800
G1 F1977
G1 X120.467 Y91.161 E.79114
G1 X120.859 Y89.854 E.04278
G1 X121.905 Y88.978 E.04278
G1 X122.844 Y88.784 E.03008
M73 P12 R4
G1 X127.156 Y88.784 E.13517
M73 Q12 S4
G1 X128.463 Y89.176 E.04278
G1 X129.339 Y90.222 E.04278
G1 X129.533 Y91.161 E.03008
G1 X129.533 Y118.839 E.86779
G1 X129.141 Y120.146 E.04278
G1 X128.095 Y121.022 E.04278
G1 X126.735 Y121.178 E.04294
G1 X122.424 Y120.403 E.13734
G1 X121.207 Y119.786 E.04278
G1 X120.467 Y118.063 E.05878
G1 X120.467 Y116.454 E.05046
; printing object murray-Piston.stl id:0 copy 0
;WIPE_START
G1 F3840
G1 X120.467 Y114.991 E-.76
;WIPE_END
G1 E-.04 F2100
G1 Z.8 F720
G1 X123.455 Y117.516 F4800
G1 X123.455 Y117.552
G1 X123.473 Y117.556
G1 X123.476 Y117.535
G1 Z.4 F720
G1 E.8 F2100
M204 S800
;TYPE:Perimeter
;WIDTH:0.45
G1 F1977
G1 X123.476 Y91.794 E.8713
G1 X126.524 Y91.794 E.10314
G1 X126.524 Y118.083 E.88985
G1 X123.536 Y117.545 E.10276
M204 S1000
M73 P13 R4
M73 Q13 S4
G1 X123.069 Y117.875 F4800
M204 S800
;TYPE:External perimeter
G1 F1500
G1 X123.069 Y91.386 E.8966
G1 X126.931 Y91.386 E.1307
G1 X126.931 Y118.569 E.92011
G1 X123.128 Y117.886 E.13076
M204 S1000
M73 P14 R4
M73 Q14 S4
G1 X123.089 Y117.475 F4800
G1 E-.8 F2100
G1 Z.8 F720
G1 X126.401 Y117.114 F4800
G1 Z.4 F720
G1 E.8 F2100
;TYPE:Solid infill
;WIDTH:0.451755
G1 F1977
G1 X125.862 Y117.653 E.02594
G1 X125.372 Y117.565 E.01693
G1 X126.218 Y116.719 E.04069
G1 X126.218 Y116.141 E.01966
G1 X124.882 Y117.477 E.06425
G1 X124.392 Y117.389 E.01693
G1 X126.218 Y115.563 E.08781
G1 X126.218 Y114.984 E.01966
G1 X123.902 Y117.301 E.11136
G1 X123.782 Y117.279 E.00414
G1 X123.782 Y116.843 E.01484
G1 X126.218 Y114.406 E.11713
G1 X126.218 Y113.828 E.01966
G1 X123.782 Y116.264 E.11713
G1 X123.782 Y115.686 E.01966
G1 X126.218 Y113.25 E.11713
G1 X126.218 Y112.672 E.01966
G1 X123.782 Y115.108 E.11713
G1 X123.782 Y114.53 E.01966
G1 X126.218 Y112.093 E.11713
G1 X126.218 Y111.515 E.01966
G1 X123.782 Y113.952 E.11713
G1 X123.782 Y113.373 E.01966
G1 X126.218 Y110.937 E.11713
G1 X126.218 Y110.359 E.01966
G1 X123.782 Y112.795 E.11713
G1 X123.782 Y112.217 E.01966
G1 X126.218 Y109.781 E.11713
G1 X126.218 Y109.203 E.01966
G1 X123.782 Y111.639 E.11713
G1 X123.782 Y111.061 E.01966
G1 X126.218 Y108.624 E.11713
G1 X126.218 Y108.046 E.01966
M73 P15 R4
M73 Q15 S4
G1 X123.782 Y110.483 E.11713
G1 X123.782 Y109.904 E.01966
G1 X126.218 Y107.468 E.11713
G1 X126.218 Y106.89 E.01966
G1 X123.782 Y109.326 E.11713
G1 X123.782 Y108.748 E.01966
G1 X126.218 Y106.312 E.11713
G1 X126.218 Y105.733 E.01966
G1 X123.782 Y108.17 E.11713
G1 X123.782 Y107.592 E.01966
G1 X126.218 Y105.155 E.11713
G1 X126.218 Y104.577 E.01966
G1 X123.782 Y107.014 E.11713
G1 X123.782 Y106.435 E.01966
G1 X126.218 Y103.999 E.11713
G1 X126.218 Y103.421 E.01966
G1 X123.782 Y105.857 E.11713
G1 X123.782 Y105.279 E.01966
G1 X126.218 Y102.843 E.11713
G1 X126.218 Y102.264 E.01966
G1 X123.782 Y104.701 E.11713
G1 X123.782 Y104.123 E.01966
G1 X126.218 Y101.686 E.11713
G1 X126.218 Y101.108 E.01966
G1 X123.782 Y103.544 E.11713
G1 X123.782 Y102.966 E.01966
G1 X126.218 Y100.53 E.11713
G1 X126.218 Y99.952 E.01966
G1 X123.782 Y102.388 E.11713
G1 X123.782 Y101.81 E.01966
G1 X126.218 Y99.374 E.11713
G1 X126.218 Y98.795 E.01966
G1 X123.782 Y101.232 E.11713
G1 X123.782 Y100.654 E.01966
G1 X126.218 Y98.217 E.11713
G1 X126.218 Y97.639 E.01966
G1 X123.782 Y100.075 E.11713
G1 X123.782 Y99.497 E.01966
M73 P16 R4
M73 Q16 S4
G1 X126.218 Y97.061 E.11713
G1 X126.218 Y96.483 E.01966
G1 X123.782 Y98.919 E.11713
G1 X123.782 Y98.341 E.01966
G1 X126.218 Y95.904 E.11713
G1 X126.218 Y95.326 E.01966
G1 X123.782 Y97.763 E.11713
G1 X123.782 Y97.184 E.01966
G1 X126.218 Y94.748 E.11713
G1 X126.218 Y94.17 E.01966
G1 X123.782 Y96.606 E.11713
G1 X123.782 Y96.028 E.01966
G1 X126.218 Y93.592 E.11713
G1 X126.218 Y93.014 E.01966
G1 X123.782 Y95.45 E.11713
G1 X123.782 Y94.872 E.01966
G1 X126.218 Y92.435 E.11713
G1 X126.218 Y92.099 E.01144
G1 X125.976 Y92.099 E.00822
G1 X123.782 Y94.294 E.10551
G1 X123.782 Y93.715 E.01966
G1 X125.398 Y92.099 E.07771
G1 X124.82 Y92.099 E.01966
G1 X123.782 Y93.137 E.04992
G1 X123.782 Y92.559 E.01966
G1 X124.425 Y91.916 E.03093
; stop printing object murray-Piston.stl id:0 copy 0
M106 S170.85
;LAYER_CHANGE
;Z:0.6
;HEIGHT:0.2
;BEFORE_LAYER_CHANGE
G92 E0.0
;0.6


;WIPE_START
G1 F3840
G1 X123.782 Y92.559 E-.47267
G1 X123.782 Y93.112 E-.28733
;WIPE_END
G1 E-.04 F2100
G1 Z.8 F720
;AFTER_LAYER_CHANGE
;0.6
G1 X120.09 Y93.112 F4800
G1 Z.6 F720
G1 E.8 F2100
;TYPE:Skirt/Brim
;WIDTH:0.42
G1 F1980
G1 X120.09 Y91.161 E.06116
G1 X120.483 Y89.744 E.04612
G1 X121.549 Y88.731 E.04612
G1 X122.844 Y88.407 E.04186
G1 X127.156 Y88.407 E.13517
G1 X128.573 Y88.8 E.04612
G1 X129.586 Y89.866 E.04612
G1 X129.91 Y91.161 E.04186
G1 X129.91 Y118.839 E.86779
G1 X129.517 Y120.256 E.04612
M73 P17 R4
M73 Q17 S4
G1 X128.451 Y121.269 E.04612
G1 X126.668 Y121.549 E.05658
G1 X122.357 Y120.774 E.13734
G1 X121.031 Y120.136 E.04612
G1 X120.223 Y118.908 E.04612
G1 X120.09 Y118.063 E.0268
G1 X120.09 Y93.172 E.78044
G1 X120.467 Y93.172 F4800
G1 F1980
G1 X120.467 Y91.161 E.06304
G1 X120.859 Y89.854 E.04278
G1 X121.905 Y88.978 E.04278
G1 X122.844 Y88.784 E.03008
G1 X127.156 Y88.784 E.13517
G1 X128.463 Y89.176 E.04278
G1 X129.339 Y90.222 E.04278
G1 X129.533 Y91.161 E.03008
G1 X129.533 Y118.839 E.86779
G1 X129.141 Y120.146 E.04278
M73 P18 R4
M73 Q18 S4
G1 X128.095 Y121.022 E.04278
G1 X126.735 Y121.178 E.04294
G1 X122.424 Y120.403 E.13734
G1 X121.207 Y119.786 E.04278
G1 X120.467 Y118.063 E.05878
G1 X120.467 Y93.232 E.77856
; printing object murray-Piston.stl id:0 copy 0
;WIPE_START
G1 F3840
G1 X120.467 Y91.769 E-.76
;WIPE_END
G1 E-.04 F2100
G1 Z1 F720
G1 X123.455 Y91.793 F4800
M73 P18 R3
G1 X123.455 Y91.794
G1 X123.476 Y91.794
G1 Z.6 F720
G1 E.8 F2100
M204 S800
;TYPE:Perimeter
;WIDTH:0.45
M73 Q18 S3
G1 F1980
G1 X126.524 Y91.794 E.10314
G1 X126.524 Y118.083 E.88985
G1 X123.476 Y117.535 E.10479
G1 X123.476 Y91.854 E.86927
M204 S1000
G1 X123.069 Y91.386 F4800
M204 S800
;TYPE:External perimeter
M73 P19 R3
M73 Q19 S3
G1 F1500
G1 X126.931 Y91.386 E.1307
G1 X126.931 Y118.569 E.92011
G1 X123.069 Y117.875 E.13279
G1 X123.069 Y91.446 E.89457
M204 S1000
G1 X123.425 Y91.57 F4800
M73 P20 R3
M73 Q20 S3
G1 E-.8 F2100
G1 Z1 F720
G1 X125.573 Y91.916 F4800
G1 Z.6 F720
G1 E.8 F2100
;TYPE:Solid infill
;WIDTH:0.452717
G1 F1980
G1 X126.218 Y92.561 E.03111
G1 X126.218 Y93.141 E.01975
G1 X125.176 Y92.099 E.05021
G1 X124.597 Y92.099 E.01975
G1 X126.218 Y93.72 E.07813
G1 X126.218 Y94.3 E.01975
G1 X124.017 Y92.099 E.10606
G1 X123.782 Y92.099 E.00802
G1 X123.782 Y92.443 E.01172
G1 X126.218 Y94.879 E.11741
G1 X126.218 Y95.459 E.01975
G1 X123.782 Y93.022 E.11741
G1 X123.782 Y93.602 E.01975
G1 X126.218 Y96.038 E.11741
G1 X126.218 Y96.618 E.01975
G1 X123.782 Y94.182 E.11741
G1 X123.782 Y94.761 E.01975
G1 X126.218 Y97.198 E.11741
G1 X126.218 Y97.777 E.01975
G1 X123.782 Y95.341 E.11741
G1 X123.782 Y95.92 E.01975
G1 X126.218 Y98.357 E.11741
G1 X126.218 Y98.936 E.01975
G1 X123.782 Y96.5 E.11741
G1 X123.782 Y97.079 E.01975
G1 X126.218 Y99.516 E.11741
G1 X126.218 Y100.095 E.01975
G1 X123.782 Y97.659 E.11741
G1 X123.782 Y98.238 E.01975
G1 X126.218 Y100.675 E.11741
G1 X126.218 Y101.254 E.01975
G1 X123.782 Y98.818 E.11741
G1 X123.782 Y99.397 E.01975
G1 X126.218 Y101.834 E.11741
G1 X126.218 Y102.413 E.01975
M73 P21 R3
M73 Q21 S3
G1 X123.782 Y99.977 E.11741
G1 X123.782 Y100.557 E.01975
G1 X126.218 Y102.993 E.11741
G1 X126.218 Y103.572 E.01975
G1 X123.782 Y101.136 E.11741
G1 X123.782 Y101.716 E.01975
G1 X126.218 Y104.152 E.11741
G1 X126.218 Y104.732 E.01975
G1 X123.782 Y102.295 E.11741
G1 X123.782 Y102.875 E.01975
G1 X126.218 Y105.311 E.11741
G1 X126.218 Y105.891 E.01975
G1 X123.782 Y103.454 E.11741
G1 X123.782 Y104.034 E.01975
G1 X126.218 Y106.47 E.11741
G1 X126.218 Y107.05 E.01975
G1 X123.782 Y104.613 E.11741
G1 X123.782 Y105.193 E.01975
G1 X126.218 Y107.629 E.11741
G1 X126.218 Y108.209 E.01975
G1 X123.782 Y105.772 E.11741
G1 X123.782 Y106.352 E.01975
G1 X126.218 Y108.788 E.11741
G1 X126.218 Y109.368 E.01975
G1 X123.782 Y106.931 E.11741
G1 X123.782 Y107.511 E.01975
G1 X126.218 Y109.947 E.11741
G1 X126.218 Y110.527 E.01975
G1 X123.782 Y108.091 E.11741
G1 X123.782 Y108.67 E.01975
G1 X126.218 Y111.106 E.11741
G1 X126.218 Y111.686 E.01975
G1 X123.782 Y109.25 E.11741
G1 X123.782 Y109.829 E.01975
G1 X126.218 Y112.266 E.11741
G1 X126.218 Y112.845 E.01975
G1 X123.782 Y110.409 E.11741
G1 X123.782 Y110.988 E.01975
M73 P22 R3
M73 Q22 S3
G1 X126.218 Y113.425 E.11741
G1 X126.218 Y114.004 E.01975
G1 X123.782 Y111.568 E.11741
G1 X123.782 Y112.147 E.01975
G1 X126.218 Y114.584 E.11741
G1 X126.218 Y115.163 E.01975
G1 X123.782 Y112.727 E.11741
