; generated by PrusaSlicer 2.4.2+linux-x64-GTK3 on 2022-07-25 at 06:40:04 UTC


;
;
; 

; external perimeters extrusion width = 0.45mm
; perimeters extrusion width = 0.45mm
; infill extrusion width = 0.45mm
; solid infill extrusion width = 0.45mm
; top infill extrusion width = 0.40mm
; support material extrusion width = 0.35mm
; first layer extrusion width = 0.42mm

M73 P0 R88
M73 Q0 S88
M201 X1000 Y1000 Z200 E5000 ; sets maximum accelerations, mm/sec^2
M203 X200 Y200 Z12 E120 ; sets maximum feedrates, mm / sec
M204 P1250 R1250 T1250 ; sets acceleration (P, T) and retract acceleration (R), mm/sec^2
M205 X8.00 Y8.00 Z0.40 E4.50 ; sets the jerk limits, mm/sec
M205 S0 T0 ; sets the minimum extruding and travel feed rate, mm/sec
M107
;TYPE:Custom
M862.3 P "MK3S" ; printer model check
M862.1 P0.4 ; nozzle diameter check
M115 U3.11.0 ; tell printer latest fw version
G90 ; use absolute coordinates
M83 ; extruder relative mode
M104 S215 ; set extruder temp
M140 S60 ; set bed temp
M190 S60 ; wait for bed temp
M109 S215 ; wait for extruder temp
G28 W ; home all without mesh bed level
G80 ; mesh bed leveling
G1 Z0.2 F720
G1 Y-3 F1000 ; go outside print area
G92 E0
G1 X60 E9 F1000 ; intro line
G1 X100 E12.5 F1000 ; intro line
G92 E0
M221 S95

; Don't change E values below. Excessive value can damage the printer.
M907 E430 ; set extruder motor current
G21 ; set units to millimeters
G90 ; use absolute coordinates
M83 ; use relative distances for extrusion
M900 K0.05 ; Filament gcode LA 1.5
M900 K30 ; Filament gcode LA 1.0
M107
;LAYER_CHANGE
;Z:0.2
;HEIGHT:0.2
;BEFORE_LAYER_CHANGE
G92 E0.0
;0.2


M73 P0 R87
G1 E-.8 F2100
G1 Z.4 F720
;AFTER_LAYER_CHANGE
;0.2
G1 X90.83 Y85.694 F4800
G1 Z.2 F720
G1 E.8 F2100
M204 S800
;TYPE:Skirt/Brim
;WIDTH:0.42
G1 F1200
G1 X92.353 Y84.134 E.06836
G1 X108.39 Y71.283 E.64434
G1 X110.381 Y70.013 E.07405
G1 X110.827 Y69.794 E.01557
G1 X115.829 Y68.01 E.16653
G1 X120.047 Y67.355 E.13384
G1 X123.16 Y67.29 E.09763
G1 X131.97 Y67.419 E.27625
G1 X135.356 Y67.637 E.10638
G1 X136.547 Y68.048 E.03951
G1 X139.449 Y70.101 E.11144
G1 X148.986 Y77.32 E.37504
G1 X157.88 Y84.365 E.35575
G1 X158.85 Y85.291 E.04205
G1 X159.69 Y86.28 E.04068
G1 X160.84 Y88.227 E.07091
G1 X161.352 Y89.535 E.04404
G1 X161.726 Y90.98 E.04681
G1 X162.068 Y93.341 E.07479
G1 X162.127 Y94.661 E.04142
G1 X161.344 Y128.61 E1.06474
G1 X161.244 Y129.838 E.03862
M73 Q0 S87
G1 X161.001 Y131.209 E.04367
G1 X160.489 Y132.754 E.05103
G1 X160.043 Y133.691 E.03252
G1 X159.404 Y134.66 E.03641
G1 X158.182 Y136.065 E.05839
G1 X157.261 Y136.818 E.03729
G1 X155.187 Y137.904 E.0734
G1 X153.683 Y138.319 E.04892
G1 X151.658 Y138.424 E.06357
G1 X98.088 Y138.583 E1.67965
G1 X95.88 Y138.221 E.07018
G1 X94.569 Y137.698 E.04426
G1 X93.318 Y136.935 E.04594
G1 X92.114 Y135.976 E.04826
G1 X91.358 Y135.187 E.03424
G1 X90.611 Y134.159 E.03986
G1 X90.026 Y133.076 E.03859
G1 X89.578 Y131.887 E.03985
G1 X89.295 Y130.863 E.03329
G1 X89.12 Y129.969 E.02858
G1 X89.016 Y128.793 E.03702
G1 X88.27 Y94.272 E1.08262
G1 X88.378 Y92.432 E.05779
G1 X88.719 Y90.309 E.06743
G1 X89.097 Y88.931 E.04479
G1 X89.803 Y87.29 E.05603
G1 X90.797 Y85.744 E.05763
M204 S1000
;WIPE_START
G1 F3840
G1 X91.814 Y84.692 E-.76
;WIPE_END
G1 E-.04 F2100
G1 Z.6 F720
G1 X145.649 Y122.073 F4800
G1 Z.2 F720
G1 E.8 F2100
M204 S800
G1 F1200
G1 X146.219 Y121.366 E.02849
G1 X147.45 Y120.384 E.04937
G1 X148.988 Y119.708 E.05268
G1 X150.219 Y119.505 E.03913
G1 X151.188 Y119.503 E.03037
G1 X153.435 Y120.14 E.07325
G1 X154.573 Y120.84 E.04189
G1 X155.572 Y121.71 E.04152
G1 X156.244 Y122.489 E.03226
G1 X157.556 Y124.27 E.06938
G1 X157.98 Y125.073 E.02846
G1 X158.301 Y125.909 E.02809
G1 X158.564 Y127.208 E.04154
G1 X158.677 Y128.391 E.03728
G1 X158.59 Y129.586 E.03755
G1 X158.418 Y130.554 E.03082
G1 X158.119 Y131.491 E.03084
G1 X157.709 Y132.401 E.03129
G1 X157.125 Y133.25 E.03232
G1 X155.977 Y134.45 E.05206
G1 X155.293 Y134.893 E.02556
G1 X154.324 Y135.361 E.03373
G1 X153.165 Y135.685 E.03772
G1 X150.819 Y135.631 E.07357
G1 X147.807 Y134.608 E.09974
G1 X146.434 Y133.591 E.05359
G1 X145.38 Y132.346 E.05114
G1 X144.615 Y130.874 E.05201
G1 X144.244 Y129.59 E.04192
G1 X144.033 Y128.036 E.04917
G1 X144.023 Y127.089 E.0297
G1 X144.074 Y126.105 E.03088
G1 X144.357 Y124.65 E.04648
G1 X144.761 Y123.616 E.03479
G1 X145.128 Y122.879 E.02583
G1 X145.616 Y122.124 E.02819
M204 S1000
G1 X145.932 Y122.329 F4800
M204 S800
G1 F1200
G1 X146.499 Y121.619 E.02849
G1 X147.624 Y120.719 E.04516
G1 X149.117 Y120.063 E.05114
G1 X150.263 Y119.879 E.03639
G1 X151.161 Y119.88 E.02817
G1 X153.261 Y120.476 E.06842
G1 X154.338 Y121.135 E.03962
G1 X155.295 Y121.966 E.03975
G1 X155.945 Y122.718 E.03115
G1 X157.23 Y124.459 E.06784
G1 X157.632 Y125.219 E.02695
G1 X157.943 Y126.03 E.02723
G1 X158.19 Y127.253 E.03914
G1 X158.3 Y128.411 E.03647
G1 X158.217 Y129.53 E.03517
G1 X158.054 Y130.452 E.02935
G1 X157.77 Y131.347 E.02945
G1 X157.388 Y132.202 E.02937
G1 X156.841 Y133.002 E.03038
G1 X155.752 Y134.146 E.04952
G1 X155.118 Y134.559 E.02373
G1 X154.174 Y135.014 E.03285
G1 X153.144 Y135.307 E.0336
G1 X150.913 Y135.264 E.06996
G1 X147.957 Y134.261 E.09787
G1 X146.678 Y133.303 E.05012
G1 X145.682 Y132.12 E.04847
G1 X144.959 Y130.718 E.04946
G1 X144.615 Y129.526 E.03891
G1 X144.409 Y127.997 E.04837
G1 X144.4 Y127.091 E.02841
G1 X144.45 Y126.138 E.02993
G1 X144.714 Y124.771 E.04364
G1 X145.109 Y123.762 E.03398
G1 X145.46 Y123.057 E.0247
G1 X145.9 Y122.379 E.02532
M204 S1000
G1 X146.216 Y122.585 F4800
M204 S800
G1 F1200
G1 X146.78 Y121.872 E.0285
G1 X147.799 Y121.054 E.04096
G1 X149.246 Y120.418 E.04957
G1 X150.305 Y120.254 E.03362
G1 X151.134 Y120.256 E.02599
G1 X153.086 Y120.811 E.0636
G1 X154.128 Y121.448 E.03832
G1 X155.019 Y122.223 E.03702
G1 X155.646 Y122.949 E.03007
G1 X156.903 Y124.648 E.06629
G1 X157.293 Y125.385 E.02613
G1 X157.585 Y126.149 E.02564
G1 X157.816 Y127.299 E.03679
G1 X157.923 Y128.4 E.03467
G1 X157.844 Y129.474 E.03378
G1 X157.691 Y130.35 E.02788
G1 X157.421 Y131.204 E.02808
G1 X157.067 Y132.004 E.02744
G1 X156.556 Y132.754 E.02844
G1 X155.527 Y133.843 E.04698
G1 X154.943 Y134.225 E.02187
G1 X154.024 Y134.668 E.03198
G1 X153.12 Y134.93 E.0295
G1 X151.006 Y134.898 E.06632
G1 X148.108 Y133.914 E.09596
G1 X146.923 Y133.016 E.04661
G1 X145.985 Y131.895 E.04583
G1 X145.303 Y130.563 E.04692
G1 X144.987 Y129.462 E.03592
G1 X144.784 Y127.958 E.04756
G1 X144.777 Y127.094 E.0271
G1 X144.826 Y126.171 E.029
G1 X145.071 Y124.892 E.04081
G1 X145.457 Y123.907 E.03317
G1 X145.793 Y123.235 E.02355
G1 X146.183 Y122.635 E.02245
M204 S1000
G1 X146.499 Y122.841 F4800
M204 S800
G1 F1200
G1 X146.581 Y122.715 E.0047
G1 X147.06 Y122.125 E.02385
G1 X147.973 Y121.39 E.03677
G1 X149.374 Y120.774 E.04797
G1 X150.346 Y120.63 E.0308
G1 X151.107 Y120.633 E.02386
G1 X152.912 Y121.146 E.05883
G1 X153.893 Y121.744 E.03604
G1 X154.743 Y122.48 E.03525
G1 X155.347 Y123.179 E.02897
G1 X156.577 Y124.838 E.06475
G1 X156.945 Y125.53 E.02459
G1 X157.227 Y126.268 E.02477
G1 X157.441 Y127.346 E.03445
G1 X157.546 Y128.389 E.03287
G1 X157.471 Y129.419 E.03239
G1 X157.328 Y130.249 E.02641
G1 X157.072 Y131.062 E.02672
G1 X156.745 Y131.808 E.02552
G1 X156.27 Y132.507 E.0265
G1 X155.301 Y133.54 E.04442
G1 X154.768 Y133.891 E.02
G1 X153.874 Y134.322 E.03113
G1 X153.095 Y134.553 E.02545
G1 X151.098 Y134.531 E.06262
G1 X148.259 Y133.567 E.09402
G1 X147.17 Y132.73 E.04305
G1 X146.289 Y131.67 E.04322
G1 X145.647 Y130.409 E.04438
G1 X145.359 Y129.398 E.03295
G1 X145.159 Y127.92 E.04676
G1 X145.154 Y127.109 E.02544
G1 X145.202 Y126.203 E.02843
G1 X145.429 Y125.013 E.03798
G1 X145.805 Y124.053 E.03234
G1 X146.125 Y123.414 E.0224
G1 X146.466 Y122.891 E.01957
M204 S1000
G1 X146.782 Y123.097 F4800
M204 S800
G1 F1200
G1 X146.891 Y122.929 E.0063
G1 X147.314 Y122.404 E.02112
G1 X148.15 Y121.723 E.03381
G1 X149.455 Y121.143 E.04478
G1 X150.388 Y121.004 E.02957
G1 X151.031 Y121.004 E.02015
G1 X152.739 Y121.482 E.05561
G1 X153.659 Y122.04 E.03375
G1 X154.467 Y122.738 E.03347
G1 X155.049 Y123.41 E.02787
G1 X156.251 Y125.028 E.0632
G1 X156.607 Y125.697 E.02376
G1 X156.868 Y126.387 E.02315
G1 X157.067 Y127.393 E.03216
G1 X157.168 Y128.379 E.03106
G1 X157.098 Y129.365 E.03101
G1 X156.964 Y130.149 E.02493
G1 X156.722 Y130.922 E.02539
G1 X156.422 Y131.612 E.02359
G1 X155.984 Y132.262 E.02457
G1 X155.074 Y133.238 E.04186
G1 X154.593 Y133.557 E.01809
G1 X153.722 Y133.976 E.03029
G1 X153.068 Y134.175 E.02144
G1 X151.189 Y134.164 E.05892
G1 X148.464 Y133.249 E.09014
G1 X147.417 Y132.444 E.04138
G1 X146.593 Y131.447 E.04056
G1 X145.992 Y130.255 E.04185
G1 X145.731 Y129.334 E.03003
G1 X145.536 Y127.905 E.04521
G1 X145.531 Y127.122 E.02455
G1 X145.575 Y126.261 E.02704
G1 X145.796 Y125.102 E.037
G1 X146.152 Y124.199 E.03042
G1 X146.447 Y123.611 E.02062
G1 X146.749 Y123.147 E.01735
M204 S1000
G1 X147.065 Y123.353 F4800
M204 S800
G1 F1200
G1 X147.202 Y123.143 E.00788
G1 X147.595 Y122.656 E.01962
G1 X148.328 Y122.057 E.02969
G1 X149.537 Y121.512 E.04156
G1 X150.429 Y121.38 E.02829
G1 X151.004 Y121.381 E.01803
G1 X152.566 Y121.818 E.05085
G1 X153.425 Y122.336 E.03147
G1 X154.191 Y122.995 E.03168
G1 X154.751 Y123.64 E.02678
G1 X155.925 Y125.218 E.06166
G1 X156.258 Y125.842 E.02218
G1 X156.51 Y126.505 E.02225
G1 X156.695 Y127.457 E.03041
G1 X156.791 Y128.369 E.02874
G1 X156.724 Y129.312 E.02963
G1 X156.6 Y130.049 E.02343
G1 X156.365 Y130.8 E.02468
G1 X156.099 Y131.417 E.02106
G1 X155.697 Y132.017 E.02265
G1 X154.846 Y132.937 E.0393
G1 X154.417 Y133.223 E.01616
G1 X153.57 Y133.631 E.02948
G1 X153.038 Y133.798 E.01748
G1 X151.278 Y133.796 E.05518
G1 X148.667 Y132.93 E.08627
G1 X147.694 Y132.187 E.03837
G1 X146.898 Y131.224 E.03919
G1 X146.338 Y130.103 E.03928
G1 X146.103 Y129.27 E.02715
G1 X145.913 Y127.89 E.04366
G1 X145.908 Y127.135 E.02368
G1 X145.948 Y126.317 E.02567
G1 X146.154 Y125.223 E.03491
G1 X146.5 Y124.345 E.0296
G1 X146.768 Y123.808 E.01883
G1 X147.032 Y123.404 E.01513
M204 S1000
G1 X147.348 Y123.61 F4800
M204 S800
G1 F1200
G1 X147.513 Y123.357 E.00945
G1 X147.876 Y122.908 E.01812
G1 X148.508 Y122.389 E.02564
G1 X149.619 Y121.881 E.03829
G1 X150.47 Y121.755 E.02698
G1 X150.977 Y121.757 E.01589
G1 X152.393 Y122.154 E.04612
G1 X153.217 Y122.651 E.03017
G1 X153.915 Y123.253 E.02891
G1 X154.453 Y123.872 E.0257
G1 X155.599 Y125.408 E.06011
G1 X155.92 Y126.009 E.02134
G1 X156.151 Y126.623 E.02058
G1 X156.324 Y127.52 E.02865
G1 X156.414 Y128.391 E.02746
G1 X156.351 Y129.259 E.02726
G1 X156.236 Y129.949 E.02194
G1 X156.008 Y130.678 E.02398
G1 X155.775 Y131.223 E.01856
G1 X155.408 Y131.773 E.02074
G1 X154.617 Y132.637 E.03673
G1 X154.241 Y132.889 E.0142
G1 X153.419 Y133.285 E.0286
G1 X152.954 Y133.43 E.01527
G1 X151.367 Y133.429 E.04976
G1 X148.87 Y132.611 E.08238
G1 X147.941 Y131.901 E.03667
G1 X147.204 Y131.002 E.03646
G1 X146.684 Y129.952 E.03673
G1 X146.475 Y129.205 E.02431
G1 X146.29 Y127.875 E.04211
G1 X146.285 Y127.147 E.02281
G1 X146.321 Y126.373 E.02431
G1 X146.511 Y125.344 E.03279
G1 X146.848 Y124.491 E.02876
G1 X147.09 Y124.005 E.01704
G1 X147.315 Y123.66 E.0129
M204 S1000
G1 X147.631 Y123.866 F4800
M204 S800
G1 F1200
G1 X147.823 Y123.572 E.01102
G1 X148.157 Y123.16 E.01662
G1 X148.69 Y122.72 E.02166
G1 X149.701 Y122.25 E.03499
G1 X150.513 Y122.13 E.02571
G1 X150.903 Y122.128 E.01223
G1 X152.222 Y122.491 E.0429
G1 X152.984 Y122.948 E.02786
G1 X153.64 Y123.511 E.02711
G1 X154.155 Y124.103 E.02461
G1 X155.273 Y125.599 E.05856
G1 X155.581 Y126.175 E.02049
G1 X155.792 Y126.739 E.01889
G1 X155.951 Y127.582 E.02689
G1 X156.037 Y128.413 E.0262
G1 X155.978 Y129.206 E.02493
G1 X155.872 Y129.849 E.02043
G1 X155.65 Y130.557 E.02327
G1 X155.45 Y131.03 E.01609
G1 X155.119 Y131.531 E.01884
G1 X154.387 Y132.338 E.03416
G1 X154.064 Y132.555 E.01219
G1 X153.269 Y132.939 E.0277
G1 X152.871 Y133.061 E.01305
G1 X151.454 Y133.061 E.04441
G1 X149.072 Y132.29 E.07852
G1 X148.218 Y131.645 E.03357
G1 X147.509 Y130.78 E.03505
G1 X147.03 Y129.802 E.03414
G1 X146.846 Y129.141 E.02152
G1 X146.667 Y127.86 E.04056
G1 X146.662 Y127.159 E.02196
G1 X146.694 Y126.427 E.02298
G1 X146.869 Y125.465 E.03065
G1 X147.196 Y124.637 E.02792
G1 X147.412 Y124.201 E.01525
G1 X147.598 Y123.916 E.01068
M204 S1000
G1 X147.914 Y124.122 F4800
M204 S800
G1 F1200
G1 X148.133 Y123.786 E.01258
G1 X148.438 Y123.413 E.01512
G1 X148.873 Y123.05 E.01776
G1 X149.785 Y122.619 E.03163
G1 X150.554 Y122.505 E.02436
G1 X150.877 Y122.505 E.01013
G1 X152.051 Y122.828 E.0382
G1 X152.752 Y123.245 E.02556
G1 X153.365 Y123.769 E.02529
G1 X153.858 Y124.335 E.02352
G1 X154.948 Y125.789 E.05699
G1 X155.243 Y126.341 E.01963
G1 X155.433 Y126.855 E.01717
G1 X155.579 Y127.643 E.02513
G1 X155.661 Y128.434 E.02494
G1 X155.604 Y129.153 E.02262
G1 X155.508 Y129.749 E.01893
G1 X155.293 Y130.437 E.02258
G1 X155.125 Y130.838 E.01365
G1 X154.829 Y131.29 E.01695
G1 X154.155 Y132.04 E.03161
G1 X153.887 Y132.222 E.01015
G1 X153.118 Y132.593 E.02676
G1 X152.789 Y132.692 E.01079
G1 X151.541 Y132.692 E.03914
G1 X149.273 Y131.97 E.07461
G1 X148.464 Y131.358 E.03182
G1 X147.816 Y130.56 E.03222
G1 X147.377 Y129.654 E.03157
G1 X147.218 Y129.076 E.01879
G1 X147.044 Y127.844 E.03902
G1 X147.039 Y127.17 E.02113
G1 X147.068 Y126.48 E.02166
G1 X147.227 Y125.586 E.02848
G1 X147.544 Y124.783 E.02707
G1 X147.734 Y124.398 E.01346
G1 X147.881 Y124.172 E.00844
M204 S1000
G1 X148.196 Y124.378 F4800
M204 S800
G1 F1200
G1 X148.443 Y124.001 E.01413
G1 X148.719 Y123.665 E.01364
G1 X149.059 Y123.379 E.01395
G1 X149.869 Y122.987 E.02821
G1 X150.594 Y122.88 E.02297
G1 X150.849 Y122.882 E.00799
G1 X151.881 Y123.166 E.03357
G1 X152.52 Y123.543 E.02327
G1 X153.09 Y124.028 E.02345
G1 X153.56 Y124.567 E.02243
G1 X154.622 Y125.98 E.05541
G1 X154.904 Y126.507 E.01875
G1 X155.073 Y126.969 E.01542
G1 X155.207 Y127.703 E.02339
G1 X155.284 Y128.455 E.02371
G1 X155.231 Y129.102 E.02035
G1 X155.144 Y129.65 E.01741
G1 X154.936 Y130.317 E.02189
G1 X154.799 Y130.648 E.01124
G1 X154.537 Y131.051 E.01506
G1 X153.921 Y131.743 E.02906
G1 X153.71 Y131.889 E.00805
G1 X152.969 Y132.246 E.02578
G1 X152.709 Y132.323 E.0085
G1 X151.625 Y132.324 E.03397
G1 X149.474 Y131.65 E.07068
G1 X148.71 Y131.071 E.03004
G1 X148.124 Y130.342 E.02934
G1 X147.725 Y129.507 E.02902
G1 X147.59 Y129.011 E.0161
G1 X147.421 Y127.828 E.03748
G1 X147.416 Y127.18 E.0203
G1 X147.442 Y126.531 E.02036
G1 X147.585 Y125.706 E.02627
G1 X147.891 Y124.929 E.0262
G1 X148.067 Y124.576 E.01235
G1 X148.163 Y124.429 E.00553
M204 S1000
G1 X148.478 Y124.635 F4800
M204 S800
G1 F1200
G1 X148.752 Y124.217 E.01568
G1 X148.999 Y123.917 E.01218
G1 X149.249 Y123.706 E.01025
G1 X149.955 Y123.356 E.02471
G1 X150.633 Y123.255 E.0215
G1 X150.818 Y123.258 E.0058
G1 X151.711 Y123.503 E.02903
G1 X152.314 Y123.859 E.02196
G1 X152.834 Y124.305 E.02147
G1 X153.263 Y124.799 E.02051
G1 X154.311 Y126.194 E.05474
G1 X154.565 Y126.673 E.01697
G1 X154.705 Y127.053 E.01272
G1 X154.833 Y127.75 E.02222
G1 X154.906 Y128.442 E.02182
G1 X154.855 Y129.064 E.01956
G1 X154.774 Y129.577 E.01629
G1 X154.579 Y130.195 E.02031
G1 X154.458 Y130.487 E.00993
G1 X154.245 Y130.812 E.01216
G1 X153.684 Y131.449 E.0266
G1 X153.531 Y131.557 E.00588
G1 X152.821 Y131.899 E.02473
G1 X152.632 Y131.953 E.00617
G1 X151.709 Y131.955 E.02893
G1 X149.673 Y131.328 E.06679
G1 X148.989 Y130.816 E.02678
G1 X148.433 Y130.123 E.02786
G1 X148.073 Y129.362 E.02641
G1 X147.961 Y128.947 E.01348
G1 X147.798 Y127.812 E.03595
G1 X147.793 Y127.19 E.0195
G1 X147.816 Y126.581 E.0191
G1 X147.943 Y125.825 E.02403
G1 X148.239 Y125.075 E.0253
G1 X148.445 Y124.685 E.01381
M204 S1000
G1 X148.759 Y124.892 F4800
M204 S800
G1 F1200
G1 X149.05 Y124.449 E.01662
G1 X149.28 Y124.169 E.01138
G1 X149.441 Y124.03 E.00666
G1 X150.041 Y123.724 E.02112
G1 X150.671 Y123.631 E.01995
G1 X150.784 Y123.634 E.00355
G1 X151.542 Y123.841 E.02465
G1 X152.082 Y124.157 E.0196
G1 X152.578 Y124.582 E.02047
G1 X152.965 Y125.03 E.01858
G1 X154.001 Y126.408 E.05405
G1 X154.225 Y126.837 E.01518
G1 X154.338 Y127.138 E.01006
G1 X154.459 Y127.799 E.02108
G1 X154.529 Y128.43 E.0199
G1 X154.48 Y129.026 E.01875
G1 X154.404 Y129.503 E.01516
G1 X154.222 Y130.072 E.01871
